;Project BearingHolders
;Created by Estlcam version 10 build 11.006
;Machining time about 00:03:45 hours

G90
G92 X0 Y0 Z0
M03 S24000
G00 Z1.0000 F500


;No. 1: Drill 1
G00 X4.9043 Y-0.0742 F3000
G00 Z0.5000 F500
G01 Z-1.0000 F60
G00 Z1.0000 F500


;No. 2: Hole 1
G00 X14.1998 Y-4.2154 Z1.0000 F3000
G00 Z0.5000 F500
G01 Z-1.0000 F60
G01 X13.9412 Y-3.8335
G01 X13.7081 Y-3.4354
G01 X13.5015 Y-3.0230
G01 X13.3224 Y-2.5979
G01 X13.1714 Y-2.1620
G01 X13.0493 Y-1.7172
G01 X12.9565 Y-1.2653
G01 X12.8935 Y-0.8084
G01 X12.8605 Y-0.3483
G01 X12.8576 Y0.1130
G01 X12.8849 Y0.5735
G01 X12.9423 Y1.0312
G01 X13.0295 Y1.4841
G01 X13.1462 Y1.9304
G01 X13.2918 Y2.3681
G01 X13.4657 Y2.7954
G01 X13.6671 Y3.2103
G01 X13.8953 Y3.6112
G01 X14.1492 Y3.9964
G01 X14.4278 Y4.3640
G01 X14.7298 Y4.7127
G01 X15.0539 Y5.0409
G01 X15.3988 Y5.3472
G01 X15.7631 Y5.6302
G01 X16.1450 Y5.8889
G01 X16.5431 Y6.1220
G01 X16.9555 Y6.3285
G01 X17.3806 Y6.5077
G01 X17.8165 Y6.6586
G01 X18.2613 Y6.7808
G01 X18.7132 Y6.8736
G01 X19.1701 Y6.9366
G01 X19.6302 Y6.9696
G01 X20.0915 Y6.9724
G01 X20.5520 Y6.9451
G01 X21.0097 Y6.8877
G01 X21.4626 Y6.8005
G01 X21.9089 Y6.6839
G01 X22.3466 Y6.5383
G01 X22.7739 Y6.3644
G01 X23.1889 Y6.1629
G01 X23.5897 Y5.9347
G01 X23.9749 Y5.6808
G01 X24.3425 Y5.4023
G01 X24.6912 Y5.1003
G01 X25.0194 Y4.7761
G01 X25.3257 Y4.4312
G01 X25.6087 Y4.0670
G01 X25.8674 Y3.6850
G01 X26.1005 Y3.2870
G01 X26.3070 Y2.8745
G01 X26.4862 Y2.4494
G01 X26.6372 Y2.0136
G01 X26.7593 Y1.5687
G01 X26.8521 Y1.1169
G01 X26.9151 Y0.6599
G01 X26.9481 Y0.1998
G01 X26.9509 Y-0.2615
G01 X26.9236 Y-0.7219
G01 X26.8662 Y-1.1796
G01 X26.7790 Y-1.6326
G01 X26.6624 Y-2.0789
G01 X26.5168 Y-2.5166
G01 X26.3429 Y-2.9438
G01 X26.1414 Y-3.3588
G01 X25.9133 Y-3.7597
G01 X25.6593 Y-4.1448
G01 X25.3808 Y-4.5125
G01 X25.0788 Y-4.8612
G01 X24.7546 Y-5.1894
G01 X24.4097 Y-5.4956
G01 X24.0455 Y-5.7787
G01 X23.6635 Y-6.0373
G01 X23.2655 Y-6.2704
G01 X22.8530 Y-6.4770
G01 X22.4279 Y-6.6561
G01 X21.9921 Y-6.8071
G01 X21.5472 Y-6.9292
G01 X21.0954 Y-7.0220
G01 X20.6384 Y-7.0850
G01 X20.1783 Y-7.1181
G01 X19.7171 Y-7.1209
G01 X19.2566 Y-7.0936
G01 X18.7989 Y-7.0362
G01 X18.3459 Y-6.9490
G01 X17.8996 Y-6.8323
G01 X17.4619 Y-6.6868
G01 X17.0347 Y-6.5129
G01 X16.6197 Y-6.3114
G01 X16.2188 Y-6.0832
G01 X15.8337 Y-5.8293
G01 X15.4660 Y-5.5508
G01 X15.1173 Y-5.2488
G01 X14.7891 Y-4.9246
G01 X14.4829 Y-4.5797
G01 X14.1998 Y-4.2154
G00 Z1.0000 F500


;No. 3: Drill 2
G00 X34.9043 Y-0.0742 Z1.0000 F3000
G00 Z0.5000 F500
G01 Z-1.0000 F60
G00 Z1.0000 F500


;No. 4: Part 1
G00 X4.7162 Y-6.2492 Z1.0000 F3000
G00 Z0.5000 F500
G01 Z-1.0000 F60
G01 X14.2480 Y-11.1652
G01 X14.7753 Y-11.4184
G01 X15.3139 Y-11.6466
G01 X15.8626 Y-11.8493
G01 X16.4202 Y-12.0260
G01 X16.9855 Y-12.1763
G01 X17.5573 Y-12.2999
G01 X18.1342 Y-12.3966
G01 X18.7150 Y-12.4660
G01 X19.2984 Y-12.5081
G01 X19.8832 Y-12.5228
G01 X20.4680 Y-12.5101
G01 X21.0516 Y-12.4698
G01 X21.6326 Y-12.4023
G01 X22.2099 Y-12.3075
G01 X22.7820 Y-12.1858
G01 X23.3478 Y-12.0373
G01 X23.9060 Y-11.8624
G01 X24.4554 Y-11.6615
G01 X24.9947 Y-11.4351
G01 X25.5228 Y-11.1836
G01 X35.0636 Y-6.2646
G01 X35.4800 Y-6.0337
G01 X35.8796 Y-5.7747
G01 X36.2605 Y-5.4891
G01 X36.6210 Y-5.1780
G01 X36.9594 Y-4.8430
G01 X37.2740 Y-4.4855
G01 X37.5634 Y-4.1074
G01 X37.8262 Y-3.7104
G01 X38.0612 Y-3.2963
G01 X38.2674 Y-2.8671
G01 X38.4436 Y-2.4247
G01 X38.5892 Y-1.9714
G01 X38.7033 Y-1.5091
G01 X38.7856 Y-1.0401
G01 X38.8356 Y-0.5666
G01 X38.8530 Y-0.0907
G01 X38.8378 Y0.3852
G01 X38.7900 Y0.8589
G01 X38.7099 Y1.3283
G01 X38.5979 Y1.7911
G01 X38.4545 Y2.2451
G01 X38.2803 Y2.6883
G01 X38.0761 Y3.1184
G01 X37.8430 Y3.5336
G01 X37.5821 Y3.9319
G01 X37.2944 Y4.3114
G01 X36.9815 Y4.6702
G01 X36.6447 Y5.0068
G01 X36.2857 Y5.3196
G01 X35.9060 Y5.6070
G01 X35.5076 Y5.8678
G01 X35.0923 Y6.1007
G01 X25.5606 Y11.0167
G01 X25.0304 Y11.2712
G01 X24.4889 Y11.5004
G01 X23.9371 Y11.7038
G01 X23.3764 Y11.8809
G01 X22.8079 Y12.0314
G01 X22.2330 Y12.1549
G01 X21.6528 Y12.2511
G01 X21.0688 Y12.3199
G01 X20.4822 Y12.3610
G01 X19.8943 Y12.3744
G01 X19.3064 Y12.3600
G01 X18.7198 Y12.3180
G01 X18.1359 Y12.2483
G01 X17.5560 Y12.1511
G01 X16.9812 Y12.0267
G01 X16.4130 Y11.8753
G01 X15.8525 Y11.6972
G01 X15.3011 Y11.4930
G01 X14.7599 Y11.2629
G01 X14.2302 Y11.0075
G01 X4.7450 Y6.1161
G01 X4.3298 Y5.8857
G01 X3.9312 Y5.6275
G01 X3.5513 Y5.3428
G01 X3.1916 Y5.0327
G01 X2.8540 Y4.6989
G01 X2.5399 Y4.3427
G01 X2.2508 Y3.9660
G01 X1.9881 Y3.5704
G01 X1.7531 Y3.1579
G01 X1.5467 Y2.7302
G01 X1.3700 Y2.2895
G01 X1.2237 Y1.8377
G01 X1.1086 Y1.3771
G01 X1.0253 Y0.9096
G01 X0.9740 Y0.4375
G01 X0.9550 Y-0.0369
G01 X0.9558 Y-0.1315
G01 X0.9757 Y-0.6026
G01 X1.0275 Y-1.0713
G01 X1.1110 Y-1.5354
G01 X1.2258 Y-1.9928
G01 X1.3713 Y-2.4413
G01 X1.5468 Y-2.8789
G01 X1.7517 Y-3.3037
G01 X1.9848 Y-3.7135
G01 X2.2453 Y-4.1066
G01 X2.5317 Y-4.4812
G01 X2.8429 Y-4.8355
G01 X3.1774 Y-5.1678
G01 X3.5337 Y-5.4767
G01 X3.9101 Y-5.7608
G01 X4.3049 Y-6.0186
G01 X4.7162 Y-6.2492
G00 Z1.0000 F500
G00 X0.0000 Y0.0000 F3000

M05
