;Project BearingHolders
;Created by Estlcam version 10 build 11.006
;Machining time about 00:04:42 hours

G90
G92 X0 Y0 Z0
M03 S24000
G00 Z1.0000 F500


;No. 1: Drill 5
G00 X4.9300 Y0.0664 F3000
G00 Z0.5000 F500
G01 Z-1.0000 F60
G00 Z1.0000 F500


;No. 2: Hole 3
G00 X16.1795 Y6.8206 Z1.0000 F3000
G00 Z0.5000 F500
G01 Z-1.0000 F60
G01 X16.5688 Y7.1885
G01 X16.9782 Y7.5339
G01 X17.4062 Y7.8559
G01 X17.8517 Y8.1533
G01 X18.3131 Y8.4254
G01 X18.7890 Y8.6711
G01 X19.2780 Y8.8897
G01 X19.7785 Y9.0806
G01 X20.2889 Y9.2431
G01 X20.8076 Y9.3768
G01 X21.3330 Y9.4811
G01 X21.8634 Y9.5558
G01 X22.3971 Y9.6007
G01 X22.9325 Y9.6156
G01 X23.4680 Y9.6004
G01 X24.0017 Y9.5552
G01 X24.5320 Y9.4802
G01 X25.0574 Y9.3756
G01 X25.5760 Y9.2416
G01 X26.0863 Y9.0788
G01 X26.5866 Y8.8877
G01 X27.0755 Y8.6688
G01 X27.5513 Y8.4228
G01 X28.0126 Y8.1505
G01 X28.4579 Y7.8528
G01 X28.8858 Y7.5306
G01 X29.2949 Y7.1849
G01 X29.6840 Y6.8168
G01 X30.0519 Y6.4275
G01 X30.3974 Y6.0181
G01 X30.7193 Y5.5901
G01 X31.0168 Y5.1446
G01 X31.2888 Y4.6832
G01 X31.5345 Y4.2072
G01 X31.7532 Y3.7183
G01 X31.9440 Y3.2178
G01 X32.1066 Y2.7074
G01 X32.2402 Y2.1887
G01 X32.3446 Y1.6633
G01 X32.4193 Y1.1329
G01 X32.4642 Y0.5992
G01 X32.4790 Y0.0638
G01 X32.4639 Y-0.4717
G01 X32.4187 Y-1.0054
G01 X32.3437 Y-1.5357
G01 X32.2390 Y-2.0611
G01 X32.1051 Y-2.5797
G01 X31.9423 Y-3.0900
G01 X31.7511 Y-3.5903
G01 X31.5322 Y-4.0792
G01 X31.2862 Y-4.5550
G01 X31.0140 Y-5.0163
G01 X30.7163 Y-5.4616
G01 X30.3940 Y-5.8895
G01 X30.0484 Y-6.2986
G01 X29.6803 Y-6.6877
G01 X29.2909 Y-7.0556
G01 X28.8816 Y-7.4011
G01 X28.4535 Y-7.7230
G01 X28.0081 Y-8.0205
G01 X27.5466 Y-8.2925
G01 X27.0707 Y-8.5382
G01 X26.5817 Y-8.7569
G01 X26.0812 Y-8.9478
G01 X25.5709 Y-9.1103
G01 X25.0522 Y-9.2439
G01 X24.5268 Y-9.3483
G01 X23.9964 Y-9.4230
G01 X23.4626 Y-9.4679
G01 X22.9272 Y-9.4827
G01 X22.3918 Y-9.4676
G01 X21.8581 Y-9.4224
G01 X21.3277 Y-9.3474
G01 X20.8024 Y-9.2427
G01 X20.2838 Y-9.1088
G01 X19.7735 Y-8.9460
G01 X19.2731 Y-8.7548
G01 X18.7842 Y-8.5359
G01 X18.3084 Y-8.2899
G01 X17.8472 Y-8.0177
G01 X17.4019 Y-7.7200
G01 X16.9740 Y-7.3977
G01 X16.5648 Y-7.0521
G01 X16.1757 Y-6.6840
G01 X15.8078 Y-6.2946
G01 X15.4624 Y-5.8853
G01 X15.1404 Y-5.4572
G01 X14.8430 Y-5.0118
G01 X14.5709 Y-4.5504
G01 X14.3252 Y-4.0744
G01 X14.1066 Y-3.5854
G01 X13.9157 Y-3.0849
G01 X13.7532 Y-2.5746
G01 X13.6195 Y-2.0559
G01 X13.5152 Y-1.5305
G01 X13.4405 Y-1.0001
G01 X13.3956 Y-0.4663
G01 X13.3807 Y0.0691
G01 X13.3959 Y0.6045
G01 X13.4411 Y1.1382
G01 X13.5161 Y1.6686
G01 X13.6207 Y2.1939
G01 X13.7547 Y2.7125
G01 X13.9175 Y3.2228
G01 X14.1086 Y3.7232
G01 X14.3275 Y4.2120
G01 X14.5735 Y4.6879
G01 X14.8458 Y5.1491
G01 X15.1435 Y5.5944
G01 X15.4657 Y6.0223
G01 X15.8114 Y6.4315
G01 X16.1795 Y6.8206
G00 Z1.0000 F500


;No. 3: Drill 6
G00 X40.9299 Y0.0665 Z1.0000 F3000
G00 Z0.5000 F500
G01 Z-1.0000 F60
G00 Z1.0000 F500


;No. 4: Part 3
G00 X11.6258 Y13.3592 Z1.0000 F3000
G00 Z0.5000 F500
G01 Z-1.0000 F60
G01 X11.5544 Y13.2972
G01 X10.5833 Y12.3982
G01 X3.0223 Y4.9875
G01 X2.7126 Y4.6577
G01 X2.4250 Y4.3084
G01 X2.1607 Y3.9412
G01 X1.9209 Y3.5575
G01 X1.7065 Y3.1591
G01 X1.5185 Y2.7475
G01 X1.3577 Y2.3246
G01 X1.2247 Y1.8922
G01 X1.1201 Y1.4520
G01 X1.0443 Y1.0059
G01 X0.9978 Y0.5559
G01 X0.9806 Y0.1037
G01 X0.9814 Y0.0091
G01 X0.9999 Y-0.4429
G01 X1.0478 Y-0.8928
G01 X1.1248 Y-1.3386
G01 X1.2306 Y-1.7784
G01 X1.3648 Y-2.2105
G01 X1.5268 Y-2.6329
G01 X1.7160 Y-3.0439
G01 X1.9314 Y-3.4417
G01 X2.1723 Y-3.8247
G01 X2.4375 Y-4.1912
G01 X2.7260 Y-4.5397
G01 X3.0366 Y-4.8687
G01 X10.5976 Y-12.2793
G01 X11.1479 Y-12.8054
G01 X11.7207 Y-13.3069
G01 X12.3148 Y-13.7830
G01 X12.9291 Y-14.2328
G01 X13.5624 Y-14.6553
G01 X14.2135 Y-15.0498
G01 X14.8813 Y-15.4155
G01 X15.5643 Y-15.7518
G01 X16.2614 Y-16.0580
G01 X16.9711 Y-16.3334
G01 X17.6922 Y-16.5777
G01 X18.4232 Y-16.7903
G01 X19.1628 Y-16.9708
G01 X19.9096 Y-17.1188
G01 X20.6622 Y-17.2342
G01 X21.4190 Y-17.3166
G01 X22.1787 Y-17.3660
G01 X22.9399 Y-17.3821
G01 X23.7010 Y-17.3651
G01 X24.4607 Y-17.3149
G01 X25.2175 Y-17.2316
G01 X25.9699 Y-17.1154
G01 X26.7165 Y-16.9665
G01 X27.4559 Y-16.7851
G01 X28.1867 Y-16.5717
G01 X28.9075 Y-16.3267
G01 X29.6169 Y-16.0504
G01 X30.3136 Y-15.7434
G01 X30.9963 Y-15.4064
G01 X31.6636 Y-15.0399
G01 X32.3143 Y-14.6447
G01 X32.9471 Y-14.2214
G01 X33.5609 Y-13.7710
G01 X34.1545 Y-13.2942
G01 X34.7267 Y-12.7920
G01 X35.2764 Y-12.2653
G01 X42.8374 Y-4.8547
G01 X43.1497 Y-4.5219
G01 X43.4394 Y-4.1693
G01 X43.7054 Y-3.7984
G01 X43.9465 Y-3.4110
G01 X44.1617 Y-3.0085
G01 X44.3500 Y-2.5928
G01 X44.5106 Y-2.1656
G01 X44.6428 Y-1.7288
G01 X44.7461 Y-1.2843
G01 X44.8200 Y-0.8340
G01 X44.8643 Y-0.3797
G01 X44.8786 Y0.0764
G01 X44.8629 Y0.5325
G01 X44.8174 Y0.9866
G01 X44.7422 Y1.4367
G01 X44.6376 Y1.8809
G01 X44.5041 Y2.3173
G01 X44.3422 Y2.7440
G01 X44.1527 Y3.1592
G01 X43.9364 Y3.5610
G01 X43.6942 Y3.9478
G01 X43.4271 Y4.3179
G01 X43.1364 Y4.6696
G01 X42.8231 Y5.0015
G01 X35.2621 Y12.4122
G01 X34.6742 Y12.9725
G01 X34.0609 Y13.5049
G01 X33.4235 Y14.0082
G01 X32.7633 Y14.4813
G01 X32.0819 Y14.9231
G01 X31.3806 Y15.3328
G01 X30.6610 Y15.7094
G01 X29.9247 Y16.0521
G01 X29.1733 Y16.3602
G01 X28.4083 Y16.6330
G01 X27.6314 Y16.8699
G01 X26.8444 Y17.0704
G01 X26.0489 Y17.2341
G01 X25.2467 Y17.3606
G01 X24.4394 Y17.4496
G01 X23.6289 Y17.5010
G01 X22.8168 Y17.5146
G01 X22.0050 Y17.4905
G01 X21.1952 Y17.4285
G01 X20.3892 Y17.3290
G01 X19.5887 Y17.1921
G01 X18.7954 Y17.0181
G01 X18.0110 Y16.8074
G01 X17.2373 Y16.5604
G01 X16.4759 Y16.2777
G01 X15.7286 Y15.9599
G01 X14.9968 Y15.6076
G01 X14.2821 Y15.2217
G01 X13.5863 Y14.8030
G01 X12.9106 Y14.3523
G01 X12.2567 Y13.8707
G01 X11.6258 Y13.3592
G00 Z1.0000 F500
G00 X0.0000 Y0.0000 F3000

M05
