;Project BearingHolder?
;Created by Estlcam version 10 build 11.006
;Machining time about 00:09:12 hours

G90
G92 X0 Y0 Z0
M03 S24000
G00 Z1.0000 F500


;No. 1: Drill 3
G00 X-17.6503 Y19.3546 F3000
G00 Z0.5000 F500
G01 Z-1.0000 F60
G00 Z1.0000 F500


;No. 2: Hole 2
G00 X-6.0467 Y25.7552 Z1.0000 F3000
G00 Z0.5000 F500
G01 Z-1.0000 F60
G01 X-5.6144 Y26.1598
G01 X-5.1565 Y26.5353
G01 X-4.6751 Y26.8801
G01 X-4.1722 Y27.1926
G01 X-3.6499 Y27.4716
G01 X-3.1104 Y27.7158
G01 X-2.5562 Y27.9241
G01 X-1.9895 Y28.0958
G01 X-1.4128 Y28.2301
G01 X-0.8285 Y28.3264
G01 X-0.2392 Y28.3842
G01 X0.3526 Y28.4034
G01 X0.9444 Y28.3838
G01 X1.5337 Y28.3256
G01 X2.1179 Y28.2289
G01 X2.6945 Y28.0943
G01 X3.2611 Y27.9222
G01 X3.8152 Y27.7134
G01 X4.3545 Y27.4689
G01 X4.8766 Y27.1896
G01 X5.3793 Y26.8767
G01 X5.8605 Y26.5317
G01 X6.3181 Y26.1559
G01 X6.7502 Y25.7509
G01 X7.1548 Y25.3186
G01 X7.5303 Y24.8608
G01 X7.8750 Y24.3793
G01 X8.1876 Y23.8764
G01 X8.4665 Y23.3541
G01 X8.7107 Y22.8146
G01 X8.9191 Y22.2604
G01 X9.0908 Y21.6937
G01 X9.2251 Y21.1170
G01 X9.3213 Y20.5327
G01 X9.3792 Y19.9434
G01 X9.3983 Y19.3516
G01 X9.3788 Y18.7598
G01 X9.3205 Y18.1705
G01 X9.2239 Y17.5863
G01 X9.0892 Y17.0097
G01 X8.9172 Y16.4431
G01 X8.7084 Y15.8890
G01 X8.4638 Y15.3498
G01 X8.1845 Y14.8276
G01 X7.8717 Y14.3249
G01 X7.5266 Y13.8437
G01 X7.1508 Y13.3861
G01 X6.7459 Y12.9541
G01 X6.3136 Y12.5494
G01 X5.8557 Y12.1739
G01 X5.3743 Y11.8292
G01 X4.8714 Y11.5167
G01 X4.3490 Y11.2377
G01 X3.8096 Y10.9935
G01 X3.2554 Y10.7851
G01 X2.6887 Y10.6134
G01 X2.1120 Y10.4792
G01 X1.5277 Y10.3829
G01 X0.9384 Y10.3250
G01 X0.3466 Y10.3059
G01 X-0.2452 Y10.3254
G01 X-0.8345 Y10.3837
G01 X-1.4187 Y10.4803
G01 X-1.9953 Y10.6150
G01 X-2.5619 Y10.7871
G01 X-3.1160 Y10.9958
G01 X-3.6553 Y11.2404
G01 X-4.1774 Y11.5197
G01 X-4.6801 Y11.8325
G01 X-5.1613 Y12.1776
G01 X-5.6189 Y12.5534
G01 X-6.0510 Y12.9583
G01 X-6.4556 Y13.3906
G01 X-6.8311 Y13.8485
G01 X-7.1759 Y14.3299
G01 X-7.4884 Y14.8329
G01 X-7.7673 Y15.3552
G01 X-8.0115 Y15.8946
G01 X-8.2199 Y16.4489
G01 X-8.3916 Y17.0156
G01 X-8.5259 Y17.5923
G01 X-8.6222 Y18.1765
G01 X-8.6800 Y18.7658
G01 X-8.6992 Y19.3577
G01 X-8.6796 Y19.9495
G01 X-8.6214 Y20.5387
G01 X-8.5247 Y21.1229
G01 X-8.3901 Y21.6995
G01 X-8.2180 Y22.2661
G01 X-8.0092 Y22.8202
G01 X-7.7647 Y23.3595
G01 X-7.4854 Y23.8816
G01 X-7.1725 Y24.3844
G01 X-6.8274 Y24.8656
G01 X-6.4516 Y25.3232
G01 X-6.0467 Y25.7552
G00 Z1.0000 F500


;No. 3: Hole 1
G00 X-5.5891 Y47.8924 Z1.0000 F3000
G00 Z0.5000 F500
G01 Z-1.0000 F60
G01 X-5.8294 Y48.2473
G01 X-6.0459 Y48.6171
G01 X-6.2378 Y49.0003
G01 X-6.4042 Y49.3952
G01 X-6.5444 Y49.8001
G01 X-6.6578 Y50.2134
G01 X-6.7440 Y50.6332
G01 X-6.8025 Y51.0577
G01 X-6.8331 Y51.4851
G01 X-6.8357 Y51.9137
G01 X-6.8103 Y52.3415
G01 X-6.7569 Y52.7667
G01 X-6.6759 Y53.1875
G01 X-6.5675 Y53.6021
G01 X-6.4322 Y54.0087
G01 X-6.2706 Y54.4056
G01 X-6.0834 Y54.7911
G01 X-5.8714 Y55.1635
G01 X-5.6355 Y55.5213
G01 X-5.3767 Y55.8628
G01 X-5.0961 Y56.1867
G01 X-4.7949 Y56.4916
G01 X-4.4744 Y56.7761
G01 X-4.1361 Y57.0390
G01 X-3.7812 Y57.2793
G01 X-3.4114 Y57.4958
G01 X-3.0282 Y57.6877
G01 X-2.6333 Y57.8541
G01 X-2.2283 Y57.9943
G01 X-1.8151 Y58.1077
G01 X-1.3953 Y58.1939
G01 X-0.9708 Y58.2524
G01 X-0.5433 Y58.2830
G01 X-0.1148 Y58.2856
G01 X0.3130 Y58.2602
G01 X0.7382 Y58.2068
G01 X1.1590 Y58.1258
G01 X1.5736 Y58.0174
G01 X1.9802 Y57.8821
G01 X2.3771 Y57.7205
G01 X2.7626 Y57.5333
G01 X3.1350 Y57.3213
G01 X3.4928 Y57.0854
G01 X3.8344 Y56.8266
G01 X4.1583 Y56.5460
G01 X4.4631 Y56.2448
G01 X4.7476 Y55.9244
G01 X5.0106 Y55.5860
G01 X5.2508 Y55.2311
G01 X5.4673 Y54.8613
G01 X5.6592 Y54.4781
G01 X5.8256 Y54.0832
G01 X5.9658 Y53.6782
G01 X6.0792 Y53.2650
G01 X6.1654 Y52.8452
G01 X6.2239 Y52.4207
G01 X6.2545 Y51.9932
G01 X6.2571 Y51.5647
G01 X6.2317 Y51.1369
G01 X6.1784 Y50.7117
G01 X6.0973 Y50.2909
G01 X5.9889 Y49.8763
G01 X5.8536 Y49.4697
G01 X5.6921 Y49.0728
G01 X5.5049 Y48.6873
G01 X5.2929 Y48.3149
G01 X5.0569 Y47.9571
G01 X4.7981 Y47.6155
G01 X4.5175 Y47.2916
G01 X4.2164 Y46.9868
G01 X3.8959 Y46.7023
G01 X3.5575 Y46.4393
G01 X3.2026 Y46.1991
G01 X2.8328 Y45.9826
G01 X2.4496 Y45.7907
G01 X2.0547 Y45.6243
G01 X1.6498 Y45.4841
G01 X1.2365 Y45.3707
G01 X0.8167 Y45.2845
G01 X0.3922 Y45.2260
G01 X-0.0352 Y45.1954
G01 X-0.4638 Y45.1928
G01 X-0.8915 Y45.2182
G01 X-1.3168 Y45.2715
G01 X-1.7376 Y45.3526
G01 X-2.1522 Y45.4610
G01 X-2.5588 Y45.5963
G01 X-2.9557 Y45.7578
G01 X-3.3412 Y45.9450
G01 X-3.7136 Y46.1571
G01 X-4.0714 Y46.3930
G01 X-4.4129 Y46.6518
G01 X-4.7368 Y46.9324
G01 X-5.0417 Y47.2335
G01 X-5.3262 Y47.5540
G01 X-5.5891 Y47.8924
G00 Z1.0000 F500


;No. 4: Drill 1
G00 X-15.2893 Y51.7392 Z1.0000 F3000
G00 Z0.5000 F500
G01 Z-1.0000 F60
G00 Z1.0000 F500


;No. 5: Drill 2
G00 X14.7107 Y51.7392 Z1.0000 F3000
G00 Z0.5000 F500
G01 Z-1.0000 F60
G00 Z1.0000 F500


;No. 6: Drill 4
G00 X18.3496 Y19.3546 Z1.0000 F3000
G00 Z0.5000 F500
G01 Z-1.0000 F60
G00 Z1.0000 F500


;No. 7: Part 2
G00 X-11.2640 Y33.0400 Z1.0000 F3000
G00 Z0.5000 F500
G01 Z-1.0000 F60
G01 X-11.5389 Y32.7955
G01 X-11.8111 Y32.5478
G01 X-12.0805 Y32.2972
G01 X-12.3470 Y32.0435
G01 X-19.9080 Y24.6328
G01 X-20.2394 Y24.2802
G01 X-20.5473 Y23.9068
G01 X-20.8303 Y23.5143
G01 X-21.0873 Y23.1042
G01 X-21.3170 Y22.6783
G01 X-21.5187 Y22.2384
G01 X-21.6914 Y21.7863
G01 X-21.8344 Y21.3240
G01 X-21.9471 Y20.8533
G01 X-22.0290 Y20.3764
G01 X-22.0798 Y19.8951
G01 X-22.0993 Y19.4116
G01 X-22.0985 Y19.2777
G01 X-22.0777 Y18.7943
G01 X-22.0256 Y18.3132
G01 X-21.9424 Y17.8365
G01 X-21.8285 Y17.3662
G01 X-21.6842 Y16.9043
G01 X-21.5104 Y16.4527
G01 X-21.3076 Y16.0133
G01 X-21.0767 Y15.5880
G01 X-20.8188 Y15.1786
G01 X-20.5348 Y14.7868
G01 X-20.2260 Y14.4142
G01 X-19.8937 Y14.0625
G01 X-12.3327 Y6.6518
G01 X-11.7666 Y6.1110
G01 X-11.1775 Y5.5954
G01 X-10.5665 Y5.1060
G01 X-9.9347 Y4.6437
G01 X-9.2834 Y4.2094
G01 X-8.6138 Y3.8039
G01 X-7.9271 Y3.4279
G01 X-7.2247 Y3.0823
G01 X-6.5079 Y2.7676
G01 X-5.7780 Y2.4844
G01 X-5.0365 Y2.2333
G01 X-4.2848 Y2.0148
G01 X-3.5243 Y1.8293
G01 X-2.7563 Y1.6771
G01 X-1.9825 Y1.5585
G01 X-1.2043 Y1.4737
G01 X-0.4231 Y1.4230
G01 X0.3596 Y1.4064
G01 X1.1423 Y1.4239
G01 X1.9234 Y1.4755
G01 X2.7016 Y1.5611
G01 X3.4753 Y1.6805
G01 X4.2430 Y1.8336
G01 X5.0034 Y2.0199
G01 X5.7548 Y2.2393
G01 X6.4961 Y2.4912
G01 X7.2256 Y2.7752
G01 X7.9421 Y3.0907
G01 X8.6441 Y3.4371
G01 X9.3304 Y3.8138
G01 X9.9995 Y4.2200
G01 X10.6504 Y4.6551
G01 X11.2816 Y5.1181
G01 X11.8921 Y5.6082
G01 X12.4806 Y6.1244
G01 X13.0461 Y6.6658
G01 X20.6071 Y14.0765
G01 X20.9422 Y14.4333
G01 X21.2532 Y14.8113
G01 X21.5387 Y15.2089
G01 X21.7975 Y15.6244
G01 X22.0284 Y16.0560
G01 X22.2305 Y16.5018
G01 X22.4029 Y16.9599
G01 X22.5449 Y17.4284
G01 X22.6558 Y17.9052
G01 X22.7352 Y18.3882
G01 X22.7826 Y18.8754
G01 X22.7981 Y19.3646
G01 X22.7813 Y19.8538
G01 X22.7325 Y20.3409
G01 X22.6518 Y20.8237
G01 X22.5396 Y21.3001
G01 X22.3964 Y21.7682
G01 X22.2228 Y22.2259
G01 X22.0195 Y22.6711
G01 X21.7874 Y23.1021
G01 X21.5275 Y23.5169
G01 X21.2409 Y23.9137
G01 X20.9289 Y24.2909
G01 X20.5928 Y24.6468
G01 X13.0318 Y32.0575
G01 X12.4275 Y32.6332
G01 X11.7970 Y33.1802
G01 X11.1418 Y33.6973
G01 X10.4632 Y34.1834
G01 X9.7628 Y34.6375
G01 X9.0421 Y35.0585
G01 X8.3026 Y35.4455
G01 X7.5458 Y35.7977
G01 X6.7735 Y36.1144
G01 X5.9874 Y36.3949
G01 X5.1890 Y36.6385
G01 X4.3802 Y36.8447
G01 X3.5627 Y37.0131
G01 X2.7382 Y37.1434
G01 X1.9086 Y37.2351
G01 X1.0756 Y37.2882
G01 X0.2410 Y37.3026
G01 X-0.5933 Y37.2781
G01 X-1.4256 Y37.2149
G01 X-2.2541 Y37.1130
G01 X-3.0769 Y36.9728
G01 X-3.8923 Y36.7944
G01 X-4.6986 Y36.5784
G01 X-5.4939 Y36.3251
G01 X-6.2766 Y36.0351
G01 X-7.0450 Y35.7090
G01 X-7.7974 Y35.3476
G01 X-8.5322 Y34.9516
G01 X-9.2477 Y34.5219
G01 X-9.9426 Y34.0594
G01 X-10.6151 Y33.5651
G01 X-11.2640 Y33.0400
G00 Z1.0000 F500


;No. 8: Part 1
G00 X-15.7216 Y45.1280 Z1.0000 F3000
G00 Z0.5000 F500
G01 Z-1.0000 F60
G01 X-6.1748 Y40.2038
G01 X-5.6232 Y39.9390
G01 X-5.0597 Y39.7005
G01 X-4.4857 Y39.4888
G01 X-3.9023 Y39.3045
G01 X-3.3108 Y39.1479
G01 X-2.7126 Y39.0194
G01 X-2.1090 Y38.9192
G01 X-1.5013 Y38.8476
G01 X-0.8910 Y38.8048
G01 X-0.2793 Y38.7909
G01 X0.3324 Y38.8058
G01 X0.9427 Y38.8495
G01 X1.5502 Y38.9220
G01 X2.1536 Y39.0231
G01 X2.7516 Y39.1526
G01 X3.3429 Y39.3101
G01 X3.9260 Y39.4954
G01 X4.4997 Y39.7079
G01 X5.0628 Y39.9473
G01 X5.6140 Y40.2130
G01 X15.0992 Y45.1044
G01 X15.5450 Y45.3518
G01 X15.9728 Y45.6291
G01 X16.3806 Y45.9350
G01 X16.7665 Y46.2681
G01 X17.1288 Y46.6268
G01 X17.4657 Y47.0094
G01 X17.7757 Y47.4141
G01 X18.0572 Y47.8392
G01 X18.3090 Y48.2824
G01 X18.5299 Y48.7419
G01 X18.7189 Y49.2154
G01 X18.8751 Y49.7007
G01 X18.9976 Y50.1955
G01 X19.0861 Y50.6976
G01 X19.1400 Y51.2046
G01 X19.1592 Y51.7140
G01 X19.1434 Y52.2236
G01 X19.0929 Y52.7309
G01 X19.0077 Y53.2335
G01 X18.8884 Y53.7292
G01 X18.7355 Y54.2155
G01 X18.5496 Y54.6902
G01 X18.3318 Y55.1511
G01 X18.0829 Y55.5961
G01 X17.8042 Y56.0229
G01 X17.4969 Y56.4298
G01 X17.1626 Y56.8146
G01 X16.8027 Y57.1757
G01 X16.4189 Y57.5113
G01 X16.0131 Y57.8199
G01 X15.5872 Y58.1000
G01 X15.1431 Y58.3504
G01 X5.5962 Y63.2745
G01 X5.0446 Y63.5393
G01 X4.4812 Y63.7779
G01 X3.9071 Y63.9895
G01 X3.3237 Y64.1739
G01 X2.7322 Y64.3305
G01 X2.1340 Y64.4590
G01 X1.5304 Y64.5592
G01 X0.9228 Y64.6307
G01 X0.3124 Y64.6735
G01 X-0.2993 Y64.6875
G01 X-0.9109 Y64.6726
G01 X-1.5212 Y64.6288
G01 X-2.1288 Y64.5563
G01 X-2.7322 Y64.4552
G01 X-3.3302 Y64.3258
G01 X-3.9214 Y64.1682
G01 X-4.5046 Y63.9830
G01 X-5.0783 Y63.7704
G01 X-5.6414 Y63.5310
G01 X-6.1925 Y63.2653
G01 X-15.6778 Y58.3740
G01 X-16.1217 Y58.1274
G01 X-16.5479 Y57.8513
G01 X-16.9542 Y57.5468
G01 X-17.3389 Y57.2153
G01 X-17.7002 Y56.8584
G01 X-18.0363 Y56.4778
G01 X-18.3457 Y56.0751
G01 X-18.6270 Y55.6523
G01 X-18.8789 Y55.2114
G01 X-19.1001 Y54.7543
G01 X-19.2898 Y54.2833
G01 X-19.4469 Y53.8004
G01 X-19.5708 Y53.3079
G01 X-19.6609 Y52.8082
G01 X-19.7168 Y52.3035
G01 X-19.7382 Y51.7961
G01 X-19.7374 Y51.6623
G01 X-19.7151 Y51.1593
G01 X-19.6590 Y50.6590
G01 X-19.5691 Y50.1637
G01 X-19.4461 Y49.6755
G01 X-19.2903 Y49.1968
G01 X-19.1026 Y48.7297
G01 X-18.8838 Y48.2763
G01 X-18.6348 Y47.8387
G01 X-18.3569 Y47.4190
G01 X-18.0513 Y47.0190
G01 X-17.7193 Y46.6405
G01 X-17.3626 Y46.2853
G01 X-16.9826 Y45.9550
G01 X-16.5813 Y45.6511
G01 X-16.1603 Y45.3750
G01 X-15.7216 Y45.1280
G00 Z1.0000 F500
G00 X0.0000 Y0.0000 F3000

M05
