;Project 1
;Created by Estlcam version 10 build 11.006
;Machining time about 00:23:49 hours

G90
G92 X0 Y0 Z0
M03 S24000
G00 Z1.0000 F500


;No. 1: Hole 1
G00 X2.1217 Y6.5552 F3000
G00 Z0.5000 F500
G01 Z0.0000 F190
G01 X96.6446
G01 Y13.5552
G01 X2.1217
G01 Y20.5552
G01 X96.6446
G01 Y27.5552
G01 X2.1217
G01 Y34.5552
G01 X96.6446
G01 Y41.5552
G01 X2.1217
G01 Y48.5552
G01 X96.6446
G01 Y55.5552
G01 X2.1217
G01 Y62.5552
G01 X96.6446
G01 Y69.5552
G01 X2.1217
G01 Y76.5552
G01 X96.6446
G01 Y83.5552
G01 X2.1217
G01 Y90.5552
G01 X96.6446
G01 Y97.5552
G01 X2.1217
G01 Y104.5552
G01 X96.6446
G01 Y111.5552
G01 X2.1217
G01 Y118.5552
G01 X96.6446
G01 Y125.5552
G01 X2.1217
G01 Y132.5552
G01 X96.6446
G01 Y139.5552
G01 X2.1217
G01 Y146.5552
G01 X96.6446
G01 Y153.5552
G01 X2.1217
G00 Z1.0000 F500
G00 X0.0000 Y0.0000 F3000

M05
