; generated by Slic3r Prusa Edition 1.41.0+win64 on 2019-10-18 at 12:35:17

; 

; external perimeters extrusion width = 0.45mm
; perimeters extrusion width = 0.45mm
; infill extrusion width = 0.45mm
; solid infill extrusion width = 0.45mm
; top infill extrusion width = 0.40mm
; support material extrusion width = 0.40mm

M107
M80 ; turn on PSU
M190 S50
M104 S190 ; start E heating
M17; enable motors
G28 X Y Z ; Home
G29 ; Autolevel
M109 S190
G90
G0 X0 Y0 F5000
G0 Z0 F5000
G91
G1 E8 F200
G90
; Filament gcode
G21 ; set units to millimeters
G90 ; use absolute coordinates
M82 ; use absolute distances for extrusion
G92 E0
G1 Z0.200 F4200.000
G1 E-1.00000 F3000.00000
G92 E0
G1 X154.746 Y123.328 F4200.000
G1 E1.00000 F3000.00000
G1 F720
G1 X159.511 Y118.522 E1.21302
G1 X164.655 Y113.769 E1.43351
G1 X165.301 Y113.371 E1.45738
G1 X173.894 Y109.002 E1.76086
G1 X174.557 Y108.732 E1.78338
G1 X201.407 Y104.186 E2.64062
G1 X214.887 Y104.156 E3.06498
G1 X215.653 Y104.221 E3.08917
G1 X216.397 Y104.412 E3.11335
G1 X217.094 Y104.722 E3.13737
G1 X217.735 Y105.145 E3.16156
G1 X222.473 Y109.910 E3.37307
G1 X222.990 Y110.547 E3.39892
G1 X231.895 Y128.561 E4.03147
G1 X232.170 Y129.284 E4.05582
G1 X232.319 Y130.043 E4.08017
G1 X232.347 Y161.223 E5.06170
G1 X232.258 Y162.114 E5.08988
G1 X232.023 Y162.911 E5.11606
G1 X231.648 Y163.654 E5.14225
G1 X222.966 Y176.991 E5.64319
G1 X217.938 Y182.033 E5.86737
G1 X216.863 Y182.697 E5.90715
G1 X215.642 Y183.046 E5.94710
G1 X179.877 Y183.083 E7.07296
G1 X178.978 Y182.941 E7.10164
G1 X178.128 Y182.627 E7.13015
G1 X160.666 Y173.879 E7.74497
G1 X159.881 Y173.376 E7.77431
G1 X159.059 Y172.531 E7.81144
G1 X146.133 Y155.006 E8.49694
G1 X145.577 Y153.959 E8.53424
G1 X145.307 Y152.811 E8.57138
G1 X145.283 Y139.047 E9.00464
G1 X145.343 Y138.366 E9.02616
G1 X145.502 Y137.701 E9.04769
G1 X146.016 Y136.611 E9.08565
G1 X154.714 Y123.378 E9.58412
G1 F3360
G1 X155.501 Y122.581 E8.63412
G1 E8.58412 F3000.00000
G92 E0
G1 X145.890 Y137.825 F4200.000
G1 E1.00000 F3000.00000
G1 F720
G1 X146.360 Y136.829 E1.03466
G1 X155.073 Y123.571 E1.53408
G1 X159.796 Y118.812 E1.74513
G1 X164.895 Y114.098 E1.96373
G1 X165.485 Y113.734 E1.98557
G1 X174.073 Y109.368 E2.28884
G1 X174.687 Y109.118 E2.30971
G1 X201.453 Y104.590 E3.16425
G1 X214.887 Y104.563 E3.58714
G1 X215.593 Y104.624 E3.60944
G1 X216.278 Y104.802 E3.63174
G1 X216.920 Y105.090 E3.65387
G1 X217.508 Y105.485 E3.67617
G1 X222.182 Y110.195 E3.88505
G1 X222.665 Y110.793 E3.90925
G1 X231.527 Y128.734 E4.53916
G1 X231.780 Y129.401 E4.56162
G1 X231.916 Y130.101 E4.58408
G1 X231.940 Y161.218 E5.56361
G1 X231.859 Y162.033 E5.58940
G1 X231.645 Y162.761 E5.61328
G1 X231.300 Y163.442 E5.63733
G1 X222.639 Y176.748 E6.13712
G1 X217.695 Y181.705 E6.35751
G1 X216.705 Y182.322 E6.39422
G1 X215.579 Y182.643 E6.43109
G1 X179.894 Y182.676 E7.55441
G1 X179.080 Y182.547 E7.58036
G1 X178.302 Y182.260 E7.60647
G1 X160.849 Y173.516 E8.22098
G1 X160.122 Y173.048 E8.24820
G1 X159.381 Y172.282 E8.28175
G1 X146.466 Y154.771 E8.96668
G1 X145.959 Y153.817 E9.00071
G1 X145.712 Y152.764 E9.03474
G1 X145.690 Y139.055 E9.46630
G1 X145.880 Y137.884 E9.50365
; PURGING FINISHED
G1 F3360
G1 X146.344 Y136.864 E8.55365
G1 E8.50365 F3000.00000
G92 E0
G1 X149.894 Y139.106 F4200.000
G1 E1.00000 F3000.00000
G1 F720
G1 X149.894 Y152.338 E1.36537
G1 X150.251 Y152.338 E1.37523
G1 X150.251 Y139.266 E1.73617
G1 X150.608 Y139.266 E1.74603
G1 X150.608 Y152.338 E2.10696
G1 X150.965 Y152.338 E2.11682
G1 X150.965 Y139.266 E2.47776
G1 X151.322 Y139.266 E2.48762
G1 X151.322 Y152.338 E2.84856
G1 X151.679 Y152.338 E2.85842
G1 X151.679 Y139.266 E3.21935
G1 X152.036 Y139.266 E3.22921
G1 X152.036 Y152.338 E3.59015
G1 X152.393 Y152.338 E3.60001
G1 X152.393 Y139.266 E3.96094
G1 X152.750 Y139.266 E3.97080
G1 X152.750 Y152.338 E4.33174
G1 X153.107 Y152.338 E4.34160
G1 X153.107 Y139.266 E4.70253
G1 X153.464 Y139.266 E4.71239
G1 X153.464 Y152.338 E5.07333
G1 X153.821 Y152.338 E5.08319
G1 X153.821 Y139.266 E5.44412
G1 X154.000 Y139.266 E5.44905
G1 X154.000 Y134.909 E5.56937
G1 X154.178 Y134.909 E5.57430
G1 X154.178 Y156.695 E6.17585
G1 X154.536 Y156.695 E6.18571
G1 X154.536 Y134.909 E6.78727
G1 X154.893 Y134.909 E6.79713
G1 X154.893 Y156.695 E7.39869
G1 X155.250 Y156.695 E7.40855
G1 X155.250 Y134.909 E8.01011
G1 X155.607 Y134.909 E8.01997
G1 X155.607 Y156.695 E8.62153
G1 X155.964 Y156.695 E8.63139
G1 X155.964 Y134.909 E9.23295
G1 X156.321 Y134.909 E9.24281
G1 X156.321 Y156.695 E9.84437
G1 X156.678 Y156.695 E9.85423
G1 X156.678 Y134.909 E10.45579
G1 X157.035 Y134.909 E10.46565
G1 X157.035 Y156.695 E11.06721
G1 X157.392 Y156.695 E11.07707
G1 X157.392 Y134.909 E11.67862
G1 X157.749 Y134.909 E11.68848
G1 X157.749 Y156.695 E12.29004
G1 X158.106 Y156.695 E12.29990
G1 X158.106 Y134.909 E12.90146
G1 X158.357 Y134.909 E12.90838
G1 X158.357 Y126.195 E13.14901
G1 X158.463 Y126.195 E13.15194
G1 X158.463 Y161.052 E14.11444
G1 X158.821 Y161.052 E14.12430
G1 X158.821 Y126.195 E15.08679
G1 X159.178 Y126.195 E15.09665
G1 X159.178 Y161.052 E16.05915
G1 X159.535 Y161.052 E16.06901
G1 X159.535 Y126.195 E17.03150
G1 X159.892 Y126.195 E17.04136
G1 X159.892 Y161.052 E18.00385
G1 X160.249 Y161.052 E18.01371
G1 X160.249 Y126.195 E18.97621
G1 X160.606 Y126.195 E18.98607
G1 X160.606 Y161.052 E19.94856
G1 X160.963 Y161.052 E19.95842
G1 X160.963 Y126.195 E20.92091
G1 X161.320 Y126.195 E20.93077
G1 X161.320 Y161.052 E21.89327
G1 X161.677 Y161.052 E21.90313
G1 X161.677 Y126.195 E22.86562
G1 X162.034 Y126.195 E22.87548
G1 X162.034 Y161.052 E23.83797
G1 X162.391 Y161.052 E23.84783
G1 X162.391 Y126.195 E24.81033
G1 X162.714 Y126.195 E24.81924
G1 X162.714 Y121.838 E24.93955
G1 X162.748 Y121.838 E24.94050
G1 X162.748 Y169.766 E26.26393
G1 X163.105 Y169.766 E26.27379
G1 X163.105 Y121.838 E27.59722
G1 X163.463 Y121.838 E27.60708
G1 X163.463 Y169.766 E28.93050
G1 X163.820 Y169.766 E28.94036
G1 X163.820 Y121.838 E30.26379
G1 X164.177 Y121.838 E30.27365
G1 X164.177 Y169.766 E31.59708
G1 X164.534 Y169.766 E31.60694
G1 X164.534 Y121.838 E32.93037
G1 X164.891 Y121.838 E32.94023
G1 X164.891 Y169.766 E34.26366
G1 X165.248 Y169.766 E34.27352
G1 X165.248 Y121.838 E35.59695
G1 X165.605 Y121.838 E35.60681
G1 X165.605 Y169.766 E36.93023
G1 X165.962 Y169.766 E36.94009
G1 X165.962 Y121.838 E38.26352
G1 X166.319 Y121.838 E38.27338
G1 X166.319 Y169.766 E39.59681
G1 X166.676 Y169.766 E39.60667
G1 X166.676 Y121.838 E40.93010
G1 X167.033 Y121.838 E40.93996
G1 X167.033 Y169.766 E42.26339
G1 X167.390 Y169.766 E42.27325
G1 X167.390 Y117.481 E43.71699
G1 X167.747 Y117.481 E43.72685
G1 X167.747 Y169.766 E45.17059
G1 X168.105 Y169.766 E45.18045
G1 X168.105 Y117.481 E46.62419
G1 X168.462 Y117.481 E46.63405
G1 X168.462 Y169.766 E48.07779
G1 X168.819 Y169.766 E48.08765
G1 X168.819 Y117.481 E49.53139
G1 X169.176 Y117.481 E49.54125
G1 X169.176 Y169.766 E50.98499
G1 X169.533 Y169.766 E50.99485
G1 X169.533 Y117.481 E52.43859
G1 X169.890 Y117.481 E52.44845
G1 X169.890 Y169.766 E53.89219
G1 X170.247 Y169.766 E53.90205
G1 X170.247 Y117.481 E55.34579
G1 X170.604 Y117.481 E55.35565
G1 X170.604 Y169.766 E56.79939
G1 X170.961 Y169.766 E56.80925
G1 X170.961 Y117.481 E58.25299
G1 X171.318 Y117.481 E58.26285
G1 X171.318 Y169.766 E59.70659
G1 X171.428 Y169.766 E59.70963
G1 X171.428 Y174.123 E59.82994
G1 X171.675 Y174.123 E59.83676
G1 X171.675 Y117.481 E61.40081
G1 X172.032 Y117.481 E61.41067
G1 X172.032 Y174.123 E62.97472
G1 X172.390 Y174.123 E62.98458
G1 X172.390 Y117.481 E64.54863
G1 X172.747 Y117.481 E64.55849
G1 X172.747 Y174.123 E66.12255
G1 X173.104 Y174.123 E66.13241
G1 X173.104 Y117.481 E67.69646
G1 X173.461 Y117.481 E67.70632
G1 X173.461 Y174.123 E69.27037
G1 X173.818 Y174.123 E69.28023
G1 X173.818 Y117.481 E70.84428
G1 X174.175 Y117.481 E70.85414
G1 X174.175 Y174.123 E72.41819
G1 X174.532 Y174.123 E72.42805
G1 X174.532 Y117.481 E73.99210
G1 X174.889 Y117.481 E74.00196
G1 X174.889 Y174.123 E75.56602
G1 X175.246 Y174.123 E75.57588
G1 X175.246 Y117.481 E77.13993
G1 X175.603 Y117.481 E77.14979
G1 X175.603 Y174.123 E78.71384
G1 X175.960 Y174.123 E78.72370
G1 X175.960 Y113.124 E80.40806
G1 X176.317 Y113.124 E80.41792
G1 X176.317 Y174.123 E82.10228
G1 X176.674 Y174.123 E82.11214
G1 X176.674 Y113.124 E83.79651
G1 X177.032 Y113.124 E83.80637
G1 X177.032 Y174.123 E85.49073
G1 X177.389 Y174.123 E85.50059
G1 X177.389 Y113.124 E87.18495
G1 X177.746 Y113.124 E87.19481
G1 X177.746 Y174.123 E88.87918
G1 X178.103 Y174.123 E88.88904
G1 X178.103 Y113.124 E90.57340
G1 X178.460 Y113.124 E90.58326
G1 X178.460 Y174.123 E92.26762
G1 X178.817 Y174.123 E92.27748
G1 X178.817 Y113.124 E93.96185
G1 X179.174 Y113.124 E93.97171
G1 X179.174 Y174.123 E95.65607
G1 X179.531 Y174.123 E95.66593
G1 X179.531 Y113.124 E97.35029
G1 X179.888 Y113.124 E97.36015
G1 X179.888 Y174.123 E99.04452
G1 X180.142 Y174.123 E99.05154
G1 X180.142 Y178.480 E99.17185
G1 X180.245 Y178.480 E99.17469
G1 X180.245 Y113.124 E100.97936
G1 X180.602 Y113.124 E100.98922
G1 X180.602 Y178.480 E102.79390
G1 X180.959 Y178.480 E102.80376
G1 X180.959 Y113.124 E104.60843
G1 X181.316 Y113.124 E104.61829
G1 X181.316 Y178.480 E106.42297
G1 X181.674 Y178.480 E106.43283
G1 X181.674 Y113.124 E108.23750
G1 X182.031 Y113.124 E108.24736
G1 X182.031 Y178.480 E110.05204
G1 X182.388 Y178.480 E110.06190
G1 X182.388 Y113.124 E111.86657
G1 X182.745 Y113.124 E111.87643
G1 X182.745 Y178.480 E113.68111
G1 X183.102 Y178.480 E113.69097
G1 X183.102 Y113.124 E115.49564
G1 X183.459 Y113.124 E115.50550
G1 X183.459 Y178.480 E117.31018
G1 X183.816 Y178.480 E117.32004
G1 X183.816 Y113.124 E119.12471
G1 X184.173 Y113.124 E119.13457
G1 X184.173 Y178.480 E120.93925
G1 X184.530 Y178.480 E120.94911
G1 X184.530 Y113.124 E122.75378
G1 X184.887 Y113.124 E122.76364
G1 X184.887 Y178.480 E124.56832
G1 X185.244 Y178.480 E124.57818
G1 X185.244 Y113.124 E126.38285
G1 X185.601 Y113.124 E126.39271
G1 X185.601 Y178.480 E128.19738
G1 X185.959 Y178.480 E128.20724
G1 X185.959 Y113.124 E130.01192
G1 X186.316 Y113.124 E130.02178
G1 X186.316 Y178.480 E131.82645
G1 X186.673 Y178.480 E131.83631
G1 X186.673 Y113.124 E133.64099
G1 X187.030 Y113.124 E133.65085
G1 X187.030 Y178.480 E135.45552
G1 X187.387 Y178.480 E135.46538
G1 X187.387 Y113.124 E137.27006
G1 X187.744 Y113.124 E137.27992
G1 X187.744 Y178.480 E139.08459
G1 X188.101 Y178.480 E139.09445
G1 X188.101 Y113.124 E140.89913
G1 X188.458 Y113.124 E140.90899
G1 X188.458 Y178.480 E142.71366
G1 X188.815 Y178.480 E142.72352
G1 X188.815 Y113.124 E144.52820
G1 X189.172 Y113.124 E144.53806
G1 X189.172 Y178.480 E146.34273
G1 X189.529 Y178.480 E146.35259
G1 X189.529 Y113.124 E148.15727
G1 X189.886 Y113.124 E148.16713
G1 X189.886 Y178.480 E149.97180
G1 X190.243 Y178.480 E149.98166
G1 X190.243 Y113.124 E151.78634
G1 X190.601 Y113.124 E151.79620
G1 X190.601 Y178.480 E153.60087
G1 X190.958 Y178.480 E153.61073
G1 X190.958 Y113.124 E155.41541
G1 X191.315 Y113.124 E155.42527
G1 X191.315 Y178.480 E157.22994
G1 X191.672 Y178.480 E157.23980
G1 X191.672 Y113.124 E159.04448
G1 X192.029 Y113.124 E159.05434
G1 X192.029 Y178.480 E160.85901
G1 X192.386 Y178.480 E160.86887
G1 X192.386 Y113.124 E162.67355
G1 X192.743 Y113.124 E162.68341
G1 X192.743 Y178.480 E164.48808
G1 X193.100 Y178.480 E164.49794
G1 X193.100 Y113.124 E166.30262
G1 X193.457 Y113.124 E166.31248
G1 X193.457 Y178.480 E168.11715
G1 X193.814 Y178.480 E168.12701
G1 X193.814 Y113.124 E169.93168
G1 X194.171 Y113.124 E169.94154
G1 X194.171 Y178.480 E171.74622
G1 X194.528 Y178.480 E171.75608
G1 X194.528 Y113.124 E173.56075
G1 X194.885 Y113.124 E173.57061
G1 X194.885 Y178.480 E175.37529
G1 X195.243 Y178.480 E175.38515
G1 X195.243 Y113.124 E177.18982
G1 X195.600 Y113.124 E177.19968
G1 X195.600 Y178.480 E179.00436
G1 X195.957 Y178.480 E179.01422
G1 X195.957 Y113.124 E180.81889
G1 X196.314 Y113.124 E180.82875
G1 X196.314 Y178.480 E182.63343
G1 X196.671 Y178.480 E182.64329
G1 X196.671 Y113.124 E184.44796
G1 X197.028 Y113.124 E184.45782
G1 X197.028 Y178.480 E186.26250
G1 X197.385 Y178.480 E186.27236
G1 X197.385 Y113.124 E188.07703
G1 X197.742 Y113.124 E188.08689
G1 X197.742 Y178.480 E189.89157
G1 X198.099 Y178.480 E189.90143
G1 X198.099 Y113.124 E191.70610
G1 X198.456 Y113.124 E191.71596
G1 X198.456 Y178.480 E193.52064
G1 X198.813 Y178.480 E193.53050
G1 X198.813 Y113.124 E195.33517
G1 X199.170 Y113.124 E195.34503
G1 X199.170 Y178.480 E197.14971
G1 X199.528 Y178.480 E197.15957
G1 X199.528 Y113.124 E198.96424
G1 X199.885 Y113.124 E198.97410
G1 X199.885 Y178.480 E200.77878
G1 X200.242 Y178.480 E200.78864
G1 X200.242 Y113.124 E202.59331
G1 X200.599 Y113.124 E202.60317
G1 X200.599 Y178.480 E204.40785
G1 X200.956 Y178.480 E204.41771
G1 X200.956 Y113.124 E206.22238
G1 X201.313 Y113.124 E206.23224
G1 X201.313 Y178.480 E208.03691
G1 X201.670 Y178.480 E208.04677
G1 X201.670 Y113.124 E209.85145
G1 X201.928 Y113.124 E209.85857
G1 X201.928 Y108.767 E209.97888
G1 X202.027 Y108.767 E209.98162
G1 X202.027 Y178.480 E211.90661
G1 X202.384 Y178.480 E211.91647
G1 X202.384 Y108.767 E213.84145
G1 X202.741 Y108.767 E213.85131
G1 X202.741 Y178.480 E215.77630
G1 X203.098 Y178.480 E215.78616
G1 X203.098 Y108.767 E217.71115
G1 X203.455 Y108.767 E217.72101
G1 X203.455 Y178.480 E219.64599
G1 X203.812 Y178.480 E219.65585
G1 X203.812 Y108.767 E221.58084
G1 X204.170 Y108.767 E221.59070
G1 X204.170 Y178.480 E223.51569
G1 X204.527 Y178.480 E223.52555
G1 X204.527 Y108.767 E225.45053
G1 X204.884 Y108.767 E225.46039
G1 X204.884 Y178.480 E227.38538
G1 X205.241 Y178.480 E227.39524
G1 X205.241 Y108.767 E229.32023
G1 X205.598 Y108.767 E229.33009
G1 X205.598 Y178.480 E231.25507
G1 X205.955 Y178.480 E231.26493
G1 X205.955 Y108.767 E233.18992
G1 X206.312 Y108.767 E233.19978
G1 X206.312 Y178.480 E235.12476
G1 X206.669 Y178.480 E235.13462
G1 X206.669 Y108.767 E237.05961
G1 X207.026 Y108.767 E237.06947
G1 X207.026 Y178.480 E238.99446
G1 X207.383 Y178.480 E239.00432
G1 X207.383 Y108.767 E240.92930
G1 X207.740 Y108.767 E240.93916
G1 X207.740 Y178.480 E242.86415
G1 X208.097 Y178.480 E242.87401
G1 X208.097 Y108.767 E244.79900
G1 X208.454 Y108.767 E244.80886
G1 X208.454 Y178.480 E246.73384
G1 X208.812 Y178.480 E246.74370
G1 X208.812 Y108.767 E248.66869
G1 X209.169 Y108.767 E248.67855
G1 X209.169 Y178.480 E250.60354
G1 X209.526 Y178.480 E250.61340
G1 X209.526 Y108.767 E252.53838
G1 X209.883 Y108.767 E252.54824
G1 X209.883 Y178.480 E254.47323
G1 X210.240 Y178.480 E254.48309
G1 X210.240 Y108.767 E256.40807
G1 X210.597 Y108.767 E256.41793
G1 X210.597 Y178.480 E258.34292
G1 X210.954 Y178.480 E258.35278
G1 X210.954 Y108.767 E260.27777
G1 X211.311 Y108.767 E260.28763
G1 X211.311 Y178.480 E262.21261
G1 X211.668 Y178.480 E262.22247
G1 X211.668 Y108.767 E264.14746
G1 X212.025 Y108.767 E264.15732
G1 X212.025 Y178.480 E266.08231
G1 X212.382 Y178.480 E266.09217
G1 X212.382 Y108.767 E268.01715
G1 X212.739 Y108.767 E268.02701
G1 X212.739 Y178.480 E269.95200
G1 X213.097 Y178.480 E269.96186
G1 X213.097 Y108.767 E271.88685
G1 X213.454 Y108.767 E271.89671
G1 X213.454 Y178.480 E273.82169
G1 X213.811 Y178.480 E273.83155
G1 X213.811 Y108.767 E275.75654
G1 X214.168 Y108.767 E275.76640
G1 X214.168 Y178.480 E277.69138
G1 X214.525 Y178.480 E277.70124
G1 X214.525 Y108.767 E279.62623
G1 X214.882 Y108.767 E279.63609
G1 X214.882 Y178.480 E281.56108
G1 X214.999 Y178.480 E281.56431
G1 X214.999 Y174.123 E281.68462
G1 X215.239 Y174.123 E281.69125
G1 X215.239 Y113.124 E283.37561
G1 X215.596 Y113.124 E283.38547
G1 X215.596 Y174.123 E285.06984
G1 X215.953 Y174.123 E285.07970
G1 X215.953 Y113.124 E286.76406
G1 X216.310 Y113.124 E286.77392
G1 X216.310 Y174.123 E288.45828
G1 X216.667 Y174.123 E288.46814
G1 X216.667 Y113.124 E290.15250
G1 X217.024 Y113.124 E290.16236
G1 X217.024 Y174.123 E291.84673
G1 X217.381 Y174.123 E291.85659
G1 X217.381 Y113.124 E293.54095
G1 X217.739 Y113.124 E293.55081
G1 X217.739 Y174.123 E295.23517
G1 X218.096 Y174.123 E295.24503
G1 X218.096 Y113.124 E296.92940
G1 X218.453 Y113.124 E296.93926
G1 X218.453 Y174.123 E298.62362
G1 X218.810 Y174.123 E298.63348
G1 X218.810 Y113.124 E300.31784
G1 X219.167 Y113.124 E300.32770
G1 X219.167 Y174.123 E302.01207
G1 X219.356 Y174.123 E302.01729
