; generated by Slic3r Prusa Edition 1.41.0+win64 on 2019-09-12 at 12:13:42

; 

; external perimeters extrusion width = 0.45mm
; perimeters extrusion width = 0.45mm
; infill extrusion width = 0.45mm
; solid infill extrusion width = 0.45mm
; top infill extrusion width = 0.40mm
; support material extrusion width = 0.40mm

M107
M80 ; turn on PSU
M190 S50
M104 S190 ; start E heating
M17; enable motors
G28 X Y Z ; Home
G29 ; Autolevel
M109 S190
G90
G0 X0 Y0 F5000
G0 Z0 F5000
G91
G1 E8 F200
G90
; Filament gcode
G21 ; set units to millimeters
G90 ; use absolute coordinates
M82 ; use absolute distances for extrusion
G92 E0
G1 Z0.150 F4200.000
G1 E-1.00000 F3000.00000
G92 E0
G1 X142.673 Y102.087 F4200.000
G1 E1.00000 F3000.00000
G1 F720
G1 X143.484 Y101.007 E1.03272
G1 X144.571 Y100.206 E1.06544
G1 X145.838 Y99.755 E1.09803
G1 X146.709 Y99.667 E1.11924
G1 X160.722 Y99.667 E1.45879
G1 X161.791 Y99.793 E1.48488
G1 X204.731 Y110.096 E2.55492
G1 X205.544 Y110.375 E2.57575
G1 X206.538 Y110.985 E2.60400
G1 X207.348 Y111.824 E2.63226
G1 X216.296 Y124.768 E3.01357
G1 X222.991 Y138.475 E3.38322
G1 X223.293 Y139.419 E3.40725
G1 X223.531 Y141.122 E3.44891
G1 X223.508 Y181.763 E4.43371
G1 X223.128 Y183.728 E4.48222
G1 X222.144 Y185.663 E4.53482
G1 X220.835 Y187.077 E4.58151
G1 X218.412 Y189.165 E4.65901
G1 X217.325 Y189.679 E4.68816
G1 X216.142 Y189.895 E4.71730
G1 X156.241 Y192.402 E6.17006
G1 X154.265 Y192.401 E6.21795
G1 X152.831 Y192.231 E6.25296
G1 X150.780 Y191.731 E6.30409
G1 X149.516 Y191.256 E6.33682
G1 X147.664 Y190.304 E6.38728
G1 X146.537 Y189.542 E6.42026
G1 X144.945 Y188.171 E6.47116
G1 X144.046 Y187.187 E6.50346
G1 X142.854 Y185.543 E6.55265
G1 X141.824 Y183.565 E6.60671
G1 X141.312 Y182.179 E6.64252
G1 X140.820 Y180.084 E6.69465
G1 X140.642 Y177.851 E6.74893
G1 X140.643 Y114.715 E8.27885
G1 X140.750 Y113.558 E8.30700
G1 X142.211 Y103.349 E8.55689
G1 X142.653 Y102.143 E8.58803
G1 X143.042 Y102.285 F4200.000
G1 F720
G1 X143.793 Y101.289 E8.61826
G1 X144.798 Y100.559 E8.64836
G1 X145.973 Y100.155 E8.67847
G1 X146.719 Y100.085 E8.69662
G1 X160.722 Y100.085 E9.03594
G1 X161.696 Y100.200 E9.05971
G1 X204.628 Y110.501 E10.12956
G1 X205.370 Y110.755 E10.14857
G1 X206.279 Y111.313 E10.17441
G1 X207.019 Y112.082 E10.20026
G1 X215.940 Y124.987 E10.58042
G1 X222.606 Y138.637 E10.94852
G1 X222.885 Y139.509 E10.97070
G1 X223.113 Y141.126 E11.01027
G1 X223.094 Y181.705 E11.99358
G1 X222.736 Y183.582 E12.03988
G1 X221.799 Y185.427 E12.09004
G1 X220.548 Y186.773 E12.13456
G1 X218.193 Y188.809 E12.20999
G1 X217.198 Y189.281 E12.23669
G1 X216.114 Y189.479 E12.26339
G1 X156.224 Y191.985 E13.71590
G1 X154.289 Y191.984 E13.76280
G1 X152.910 Y191.820 E13.79644
G1 X150.900 Y191.331 E13.84656
G1 X149.685 Y190.874 E13.87802
G1 X147.873 Y189.943 E13.92738
G1 X146.790 Y189.210 E13.95908
G1 X145.237 Y187.873 E14.00872
G1 X144.373 Y186.927 E14.03978
G1 X143.209 Y185.323 E14.08780
G1 X142.206 Y183.395 E14.14047
G1 X141.713 Y182.064 E14.17487
G1 X141.232 Y180.017 E14.22581
G1 X141.060 Y177.842 E14.27869
G1 X141.061 Y114.724 E15.80814
G1 X142.617 Y103.447 E16.08401
G1 X143.021 Y102.342 E16.11252
; PURGING FINISHED
G1 F3360
G1 X143.683 Y101.438 E15.16252
G1 E15.11252 F3000.00000
G92 E0
G1 X146.740 Y104.293 F4200.000
G1 E1.00000 F3000.00000
G1 F720
G1 X146.740 Y111.148 E1.14622
G1 X147.066 Y111.013 E1.15374
G1 X147.476 Y110.923 E1.16270
G1 X147.476 Y104.459 E1.30058
G1 X148.211 Y104.459 E1.31627
G1 X148.211 Y110.843 E1.45246
G1 X148.947 Y110.843 E1.46816
G1 X148.947 Y104.459 E1.60434
G1 X149.682 Y104.459 E1.62004
G1 X149.682 Y110.843 E1.75622
G1 X150.418 Y110.843 E1.77191
G1 X150.418 Y104.459 E1.90810
G1 X151.154 Y104.459 E1.92379
G1 X151.154 Y110.843 E2.05997
G1 X151.889 Y110.843 E2.07567
G1 X151.889 Y104.459 E2.21185
G1 X152.625 Y104.459 E2.22754
G1 X152.625 Y111.026 E2.36762
G1 F3360
G1 X152.625 Y109.906 E1.41762
G1 E1.36762 F3000.00000
G92 E0
G1 X148.211 Y114.393 F4200.000
G1 E1.00000 F3000.00000
G1 F720
G1 X148.211 Y123.562 E1.19561
G1 X148.947 Y123.562 E1.21130
G1 X148.947 Y114.306 E1.40874
G1 X149.682 Y114.306 E1.42443
G1 X149.682 Y123.562 E1.62188
G1 X150.418 Y123.562 E1.63757
G1 X150.418 Y114.306 E1.83501
G1 X151.154 Y114.306 E1.85070
G1 X151.154 Y123.562 E2.04815
G1 X151.889 Y123.562 E2.06384
G1 X151.889 Y114.306 E2.26128
G1 X152.625 Y114.306 E2.27697
G1 X152.625 Y123.562 E2.47442
G1 X153.361 Y123.562 E2.49011
G1 X153.361 Y104.459 E2.89762
G1 X154.096 Y104.459 E2.91331
G1 X154.096 Y123.562 E3.32082
G1 X154.832 Y123.562 E3.33652
G1 X154.832 Y104.459 E3.74403
G1 X155.567 Y104.459 E3.75972
G1 X155.567 Y123.562 E4.16723
G1 X156.303 Y123.562 E4.18292
G1 X156.303 Y104.459 E4.59043
G1 X157.039 Y104.459 E4.60613
G1 X157.039 Y123.728 E5.01717
G1 X162.188 Y123.728 F4200.000
G1 F720
G1 X162.188 Y114.497 E5.21408
G1 X161.908 Y114.361 E5.22071
G1 X161.650 Y114.306 E5.22633
G1 X161.452 Y114.306 E5.23056
G1 X161.452 Y123.562 E5.42800
G1 X160.717 Y123.562 E5.44370
G1 X160.717 Y114.306 E5.64114
G1 X159.981 Y114.306 E5.65683
G1 X159.981 Y123.562 E5.85428
G1 X159.245 Y123.562 E5.86997
G1 X159.245 Y114.306 E6.06741
G1 X158.510 Y114.306 E6.08310
G1 X158.510 Y123.562 E6.28055
G1 X157.774 Y123.562 E6.29624
G1 X157.774 Y114.220 E6.49554
G1 X157.285 Y113.730 E6.51030
G1 X157.285 Y111.419 E6.55960
G1 X157.774 Y110.930 E6.57436
G1 X157.774 Y104.459 E6.71240
G1 X158.510 Y104.459 E6.72809
G1 X158.510 Y110.843 E6.86427
G1 X159.245 Y110.843 E6.87996
G1 X159.245 Y104.459 E7.01614
G1 X159.981 Y104.459 E7.03184
G1 X159.981 Y110.843 E7.16802
G1 X160.717 Y110.843 E7.18371
G1 X160.717 Y104.293 E7.32342
G1 F3360
G1 X160.717 Y105.413 E6.37342
G1 E6.32342 F3000.00000
G92 E0
G1 X162.188 Y181.134 F4200.000
G1 E1.00000 F3000.00000
G1 F720
G1 X162.188 Y135.034 E1.98342
G1 X161.452 Y135.034 E1.99911
G1 X161.452 Y182.073 E3.00255
G1 X160.983 Y182.691 E3.01910
G1 X160.717 Y182.980 E3.02748
G1 X160.717 Y135.034 E4.05027
G1 X159.981 Y135.034 E4.06596
G1 X159.981 Y183.658 E5.10321
G1 X159.686 Y183.890 E5.11122
G1 X159.245 Y184.185 E5.12253
G1 X159.245 Y135.034 E6.17102
G1 X158.510 Y135.034 E6.18671
G1 X158.510 Y184.585 E7.24375
G1 X158.145 Y184.754 E7.25232
G1 X157.774 Y184.890 E7.26075
G1 X157.774 Y135.034 E8.32429
G1 X157.039 Y135.034 E8.33998
G1 X157.039 Y185.114 E9.40829
G1 X156.303 Y185.250 E9.42425
G1 X156.303 Y135.034 E10.49546
G1 X155.567 Y135.034 E10.51116
G1 X155.567 Y185.314 E11.58373
G1 X155.269 Y185.326 E11.59011
G1 X154.832 Y185.308 E11.59944
G1 X154.832 Y135.034 E12.67190
G1 X154.096 Y135.034 E12.68759
G1 X154.096 Y185.234 E13.75846
G1 X153.361 Y185.075 E13.77452
G1 X153.361 Y135.034 E14.84199
G1 X152.625 Y135.034 E14.85768
G1 X152.625 Y184.839 E15.92013
G1 X152.393 Y184.754 E15.92541
G1 X151.889 Y184.522 E15.93724
G1 X151.889 Y135.034 E16.99292
G1 X151.154 Y135.034 E17.00861
G1 X151.154 Y184.092 E18.05513
G1 X150.851 Y183.890 E18.06289
G1 X150.418 Y183.549 E18.07465
G1 X150.418 Y135.034 E19.10958
G1 X149.682 Y135.034 E19.12527
G1 X149.682 Y182.830 E20.14486
G1 X149.189 Y182.228 E20.16148
G1 X148.947 Y181.866 E20.17077
G1 X148.947 Y135.034 E21.16979
G1 X148.211 Y135.034 E21.18548
G1 X148.211 Y180.834 E22.16250
G1 F3360
G1 X148.211 Y179.714 E21.21250
G1 E21.16250 F3000.00000
G92 E0
G1 X151.626 Y112.680 F4200.000
G1 E1.00000 F3000.00000
G1 F720
G1 X148.716 Y112.680 E1.07051
G1 X148.124 Y112.806 E1.08519
G1 X147.571 Y113.052 E1.09986
G1 X147.081 Y113.408 E1.11453
G1 X146.676 Y113.858 E1.12920
G1 X146.373 Y114.382 E1.14387
G1 X146.186 Y114.958 E1.15855
G1 X146.126 Y115.527 E1.17240
G1 X146.126 Y177.823 E2.68196
G1 X146.154 Y178.530 E2.69910
G1 X146.251 Y179.305 E2.71802
G1 X146.378 Y179.945 E2.73384
G1 X146.573 Y180.636 E2.75123
G1 X146.821 Y181.309 E2.76863
G1 X147.122 Y181.961 E2.78603
G1 X147.473 Y182.588 E2.80342
G1 X147.872 Y183.185 E2.82082
G1 X148.316 Y183.748 E2.83822
G1 X148.803 Y184.276 E2.85561
G1 X149.331 Y184.763 E2.87301
G1 X149.894 Y185.207 E2.89041
G1 X150.491 Y185.606 E2.90780
G1 X151.118 Y185.957 E2.92520
G1 X151.770 Y186.258 E2.94260
G1 X152.443 Y186.506 E2.95999
G1 X153.134 Y186.701 E2.97739
G1 X153.838 Y186.841 E2.99479
G1 X154.545 Y186.925 E3.01202
G1 X155.269 Y186.954 E3.02958
G1 X155.986 Y186.925 E3.04698
G1 X156.699 Y186.841 E3.06437
G1 X157.403 Y186.701 E3.08177
G1 X158.094 Y186.506 E3.09917
G1 X158.768 Y186.258 E3.11656
G1 X159.420 Y185.957 E3.13396
G1 X160.046 Y185.606 E3.15136
G1 X160.643 Y185.207 E3.16875
G1 X161.207 Y184.763 E3.18615
G1 X161.734 Y184.276 E3.20355
G1 X162.221 Y183.748 E3.22095
G1 X162.666 Y183.185 E3.23834
G1 X163.065 Y182.588 E3.25574
G1 X163.415 Y181.961 E3.27314
G1 X163.716 Y181.309 E3.29053
G1 X163.965 Y180.636 E3.30793
G1 X164.145 Y179.995 E3.32407
G1 X164.299 Y179.242 E3.34268
G1 X164.384 Y178.528 E3.36012
G1 X164.412 Y177.823 E3.37721
G1 X164.412 Y115.527 E4.88676
G1 X164.352 Y114.958 E4.90061
G1 X164.177 Y114.420 E4.91432
G1 X163.865 Y113.861 E4.92983
G1 X163.457 Y113.408 E4.94461
G1 X162.967 Y113.052 E4.95929
G1 X162.414 Y112.806 E4.97396
G1 X161.821 Y112.680 E4.98863
G1 X158.912 Y112.680 E5.05915
G1 X158.912 Y112.470 E5.06424
G1 X162.515 Y112.470 E5.15155
G1 X162.996 Y112.572 E5.16347
G1 X163.447 Y112.773 E5.17545
G1 X163.844 Y113.061 E5.18732
G1 X164.173 Y113.427 E5.19924
G1 X164.420 Y113.855 E5.21121
G1 X164.571 Y114.321 E5.22309
G1 X164.626 Y114.844 E5.23584
G1 X164.626 Y177.798 E6.76132
G1 X164.597 Y178.544 E6.77943
G1 X164.510 Y179.274 E6.79723
G1 X164.367 Y179.995 E6.81504
G1 X164.167 Y180.702 E6.83284
G1 X163.913 Y181.391 E6.85064
G1 X163.606 Y182.058 E6.86844
G1 X163.247 Y182.699 E6.88625
G1 X162.838 Y183.310 E6.90405
G1 X162.384 Y183.887 E6.92185
G1 X161.885 Y184.427 E6.93966
G1 X161.346 Y184.925 E6.95745
G1 X160.768 Y185.380 E6.97526
G1 X160.158 Y185.788 E6.99306
G1 X159.517 Y186.147 E7.01087
G1 X158.849 Y186.455 E7.02867
G1 X158.160 Y186.709 E7.04647
G1 X157.453 Y186.908 E7.06427
G1 X156.732 Y187.052 E7.08208
G1 X156.003 Y187.138 E7.09988
G1 X155.269 Y187.167 E7.11768
G1 X154.536 Y187.138 E7.13545
G1 X153.749 Y187.041 E7.15467
G1 X153.084 Y186.908 E7.17109
G1 X152.377 Y186.709 E7.18889
G1 X151.688 Y186.455 E7.20669
G1 X151.018 Y186.145 E7.22458
G1 X150.380 Y185.788 E7.24230
G1 X149.769 Y185.380 E7.26010
G1 X149.192 Y184.925 E7.27790
G1 X148.653 Y184.427 E7.29571
G1 X148.154 Y183.887 E7.31351
G1 X147.734 Y183.355 E7.32993
G1 X147.290 Y182.698 E7.34915
G1 X146.932 Y182.058 E7.36691
G1 X146.624 Y181.391 E7.38472
G1 X146.370 Y180.702 E7.40252
G1 X146.186 Y180.050 E7.41894
G1 X146.027 Y179.272 E7.43816
G1 X145.941 Y178.544 E7.45592
G1 X145.912 Y177.798 E7.47403
G1 X145.912 Y114.844 E8.99952
G1 X145.966 Y114.323 E9.01221
G1 X146.120 Y113.851 E9.02423
G1 X146.365 Y113.427 E9.03611
G1 X146.694 Y113.061 E9.04802
G1 X147.094 Y112.771 E9.06000
G1 X147.541 Y112.572 E9.07187
G1 X148.023 Y112.470 E9.08380
G1 X151.626 Y112.470 E9.17111
G1 X151.626 Y112.620 E9.17475
G1 X152.044 Y113.098 F4200.000
G1 F720
G1 X148.760 Y113.098 E9.25433
G1 X148.254 Y113.205 E9.26687
G1 X147.781 Y113.416 E9.27941
G1 X147.362 Y113.720 E9.29196
G1 X147.015 Y114.105 E9.30450
G1 X146.757 Y114.553 E9.31705
G1 X146.597 Y115.045 E9.32959
G1 X146.544 Y115.548 E9.34185
G1 X146.544 Y177.815 E10.85067
G1 X146.570 Y178.496 E10.86719
G1 X146.663 Y179.238 E10.88531
G1 X146.785 Y179.847 E10.90037
G1 X146.971 Y180.506 E10.91697
G1 X147.208 Y181.149 E10.93357
G1 X147.495 Y181.771 E10.95017
G1 X147.829 Y182.369 E10.96677
G1 X148.210 Y182.939 E10.98337
G1 X148.634 Y183.477 E10.99997
G1 X149.099 Y183.980 E11.01658
G1 X149.602 Y184.445 E11.03318
G1 X150.140 Y184.869 E11.04978
G1 X150.710 Y185.250 E11.06638
G1 X151.308 Y185.585 E11.08298
G1 X151.930 Y185.871 E11.09958
G1 X152.573 Y186.108 E11.11618
G1 X153.232 Y186.294 E11.13278
G1 X153.904 Y186.428 E11.14938
G1 X154.578 Y186.508 E11.16583
G1 X155.269 Y186.535 E11.18259
G1 X155.953 Y186.509 E11.19919
G1 X156.634 Y186.428 E11.21579
G1 X157.306 Y186.294 E11.23239
G1 X157.965 Y186.108 E11.24899
G1 X158.608 Y185.871 E11.26559
G1 X159.230 Y185.585 E11.28219
G1 X159.828 Y185.250 E11.29880
G1 X160.397 Y184.869 E11.31540
G1 X160.935 Y184.445 E11.33200
G1 X161.438 Y183.980 E11.34860
G1 X161.903 Y183.477 E11.36520
G1 X162.328 Y182.939 E11.38180
G1 X162.708 Y182.369 E11.39840
G1 X163.043 Y181.771 E11.41500
G1 X163.330 Y181.149 E11.43161
G1 X163.567 Y180.506 E11.44821
G1 X163.739 Y179.896 E11.46358
G1 X163.886 Y179.176 E11.48139
G1 X163.967 Y178.495 E11.49801
G1 X163.994 Y177.815 E11.51450
G1 X163.994 Y115.548 E13.02333
G1 X163.941 Y115.045 E13.03558
G1 X163.792 Y114.588 E13.04723
G1 X163.523 Y114.106 E13.06061
G1 X163.176 Y113.720 E13.07320
G1 X162.757 Y113.416 E13.08574
G1 X162.284 Y113.205 E13.09829
G1 X161.778 Y113.098 E13.11083
G1 X158.494 Y113.098 E13.19041
G1 X158.494 Y112.052 E13.21575
G1 X162.559 Y112.052 E13.31425
G1 X163.126 Y112.172 E13.32830
G1 X163.657 Y112.409 E13.34240
G1 X164.125 Y112.749 E13.35640
G1 X164.513 Y113.180 E13.37045
G1 X164.803 Y113.684 E13.38456
G1 X164.982 Y114.234 E13.39856
G1 X165.044 Y114.822 E13.41290
G1 X165.044 Y177.806 E14.93911
G1 X165.013 Y178.577 E14.95782
G1 X164.923 Y179.339 E14.97641
G1 X164.773 Y180.092 E14.99501
G1 X164.565 Y180.831 E15.01361
G1 X164.299 Y181.551 E15.03221
G1 X163.978 Y182.248 E15.05081
G1 X163.603 Y182.918 E15.06941
G1 X163.177 Y183.556 E15.08801
G1 X162.702 Y184.159 E15.10660
G1 X162.181 Y184.722 E15.12520
G1 X161.617 Y185.243 E15.14379
G1 X161.014 Y185.718 E15.16240
G1 X160.376 Y186.145 E15.18100
G1 X159.706 Y186.520 E15.19960
G1 X159.009 Y186.841 E15.21819
G1 X158.289 Y187.107 E15.23679
G1 X157.551 Y187.315 E15.25539
G1 X156.798 Y187.465 E15.27399
G1 X156.036 Y187.555 E15.29259
G1 X155.269 Y187.585 E15.31119
G1 X154.502 Y187.555 E15.32978
G1 X153.682 Y187.453 E15.34979
G1 X152.987 Y187.315 E15.36698
G1 X152.248 Y187.107 E15.38557
G1 X151.528 Y186.841 E15.40417
G1 X150.828 Y186.518 E15.42286
G1 X150.161 Y186.145 E15.44137
G1 X149.523 Y185.718 E15.45997
G1 X148.920 Y185.243 E15.47857
G1 X148.357 Y184.722 E15.49716
G1 X147.836 Y184.159 E15.51576
G1 X147.397 Y183.602 E15.53295
G1 X146.934 Y182.917 E15.55297
G1 X146.559 Y182.248 E15.57155
G1 X146.238 Y181.551 E15.59015
G1 X145.972 Y180.831 E15.60875
G1 X145.780 Y180.148 E15.62594
G1 X145.614 Y179.339 E15.64596
G1 X145.524 Y178.577 E15.66454
G1 X145.494 Y177.806 E15.68325
G1 X145.494 Y114.822 E17.20946
G1 X145.555 Y114.236 E17.22375
G1 X145.736 Y113.680 E17.23790
G1 X146.025 Y113.180 E17.25190
G1 X146.413 Y112.749 E17.26595
G1 X146.884 Y112.407 E17.28005
G1 X147.412 Y112.172 E17.29406
G1 X147.979 Y112.052 E17.30811
G1 X152.044 Y112.052 E17.40661
G1 X152.044 Y113.038 E17.43050
G1 X151.645 Y113.064 F4200.000
G1 F3360
G1 X150.924 Y113.058 E16.48050
G1 E16.43050 F3000.00000
G92 E0
G1 X147.392 Y112.893 F4200.000
G1 E1.00000 F3000.00000
G1 F720
G1 X147.221 Y112.992 E1.00103
G1 X146.906 Y113.221 E1.00305
G1 X146.576 Y113.580 E1.00559
G1 X146.480 Y113.712 E1.00644
G1 X146.306 Y114.032 E1.00787
G1 F3360
G1 X146.480 Y113.712 E0.69849
G1 E0.00787 F3000.00000
G92 E0
G1 X163.146 Y112.894 F4200.000
G1 E1.00000 F3000.00000
G1 F720
G1 X163.319 Y112.994 E1.00080
G1 X163.669 Y113.255 E1.00256
G1 X163.961 Y113.580 E1.00431
G1 X164.061 Y113.717 E1.00499
G1 X164.238 Y114.051 E1.00651
G1 F3360
G1 X164.061 Y113.717 E0.68588
G1 X163.961 Y113.580 E0.54256
G1 X163.669 Y113.255 E0.17174
G1 X163.560 Y113.174 E0.05651
G1 E0.00651 F3000.00000
G92 E0
G1 X182.589 Y178.758 F4200.000
G1 E1.00000 F3000.00000
G1 F720
G1 X183.130 Y178.643 E1.01341
G1 X183.684 Y178.643 E1.02681
G1 X184.225 Y178.758 E1.04022
G1 X184.730 Y178.983 E1.05362
G1 X185.178 Y179.308 E1.06703
G1 X185.548 Y179.719 E1.08043
G1 X185.817 Y180.185 E1.09347
G1 X185.995 Y180.723 E1.10719
G1 X186.053 Y181.275 E1.12065
G1 X185.996 Y181.825 E1.13405
G1 X185.825 Y182.351 E1.14746
G1 X185.548 Y182.830 E1.16087
G1 X185.178 Y183.241 E1.17427
G1 X184.730 Y183.566 E1.18768
G1 X184.225 Y183.792 E1.20108
G1 X183.684 Y183.907 E1.21449
G1 X183.130 Y183.907 E1.22789
G1 X182.589 Y183.792 E1.24130
G1 X182.084 Y183.566 E1.25471
G1 X181.636 Y183.241 E1.26811
G1 X181.266 Y182.830 E1.28152
G1 X180.989 Y182.351 E1.29492
G1 X180.818 Y181.825 E1.30833
G1 X180.761 Y181.275 E1.32174
