; generated by Slic3r Prusa Edition 1.41.0+win64 on 2019-10-24 at 11:58:29

; 

; external perimeters extrusion width = 0.45mm
; perimeters extrusion width = 0.45mm
; infill extrusion width = 0.45mm
; solid infill extrusion width = 0.45mm
; top infill extrusion width = 0.40mm
; support material extrusion width = 0.40mm

M107
M80 ; turn on PSU
M190 S50
M104 S190 ; start E heating
M17; enable motors
G28 X Y Z ; Home
G29 ; Autolevel
M109 S190
G90
G0 X0 Y0 F5000
G0 Z0 F5000
G91
G1 E8 F200
G90
; Filament gcode
G21 ; set units to millimeters
G90 ; use absolute coordinates
M82 ; use absolute distances for extrusion
G92 E0
G1 Z0.150 F4200.000
G1 E-1.00000 F3000.00000
G92 E0
G1 X114.960 Y91.552 F4200.000
G1 E1.00000 F3000.00000
G1 F720
G1 X116.040 Y89.862 E1.04859
G1 X116.943 Y88.831 E1.08181
G1 X118.077 Y87.854 E1.11810
G1 X119.568 Y86.922 E1.16069
G1 X121.101 Y86.279 E1.20096
G1 X122.741 Y85.878 E1.24188
G1 X124.350 Y85.744 E1.28101
G1 X236.437 Y85.743 E3.99709
G1 X238.181 Y85.889 E4.03950
G1 X240.043 Y86.383 E4.08618
G1 X241.259 Y86.903 E4.11822
G1 X242.421 Y87.599 E4.15104
G1 X243.899 Y88.810 E4.19734
G1 X245.059 Y90.165 E4.24056
G1 X246.022 Y91.803 E4.28662
G1 X246.636 Y93.432 E4.32879
G1 X246.929 Y94.716 E4.36071
G1 X247.048 Y96.060 E4.39340
G1 X247.053 Y172.603 E6.24820
G1 X246.930 Y174.020 E6.28265
G1 X246.624 Y175.356 E6.31585
G1 X245.891 Y177.211 E6.36420
G1 X244.821 Y178.882 E6.41228
G1 X243.921 Y179.909 E6.44537
G1 X242.786 Y180.886 E6.48165
G1 X241.296 Y181.818 E6.52425
G1 X239.763 Y182.461 E6.56452
G1 X238.122 Y182.861 E6.60544
G1 X236.514 Y182.996 E6.64456
G1 X124.352 Y182.996 E9.36244
G1 X122.819 Y182.873 E9.39972
G1 X121.482 Y182.571 E9.43293
G1 X119.619 Y181.844 E9.48140
G1 X117.924 Y180.762 E9.53012
G1 X116.893 Y179.859 E9.56333
G1 X115.916 Y178.724 E9.59962
G1 X114.984 Y177.233 E9.64222
G1 X114.343 Y175.706 E9.68236
G1 X113.942 Y174.071 E9.72315
G1 X113.807 Y172.489 E9.76163
G1 X113.806 Y96.258 E11.60884
G1 X113.930 Y94.746 E11.64561
G1 X114.232 Y93.415 E11.67868
G1 X114.938 Y91.608 E11.72570
G1 X115.325 Y91.759 F4200.000
G1 F720
G1 X116.362 Y90.127 E11.77256
G1 X117.234 Y89.130 E11.80465
G1 X118.341 Y88.178 E11.84002
G1 X119.769 Y87.288 E11.88081
G1 X121.242 Y86.672 E11.91950
G1 X122.814 Y86.290 E11.95868
G1 X124.360 Y86.161 E11.99627
G1 X236.437 Y86.161 E14.71211
G1 X238.103 Y86.299 E14.75262
G1 X239.885 Y86.770 E14.79730
G1 X241.070 Y87.275 E14.82851
G1 X242.196 Y87.951 E14.86033
G1 X243.610 Y89.111 E14.90465
G1 X244.720 Y90.409 E14.94603
G1 X245.640 Y91.973 E14.98999
G1 X246.231 Y93.533 E15.03042
G1 X246.516 Y94.782 E15.06146
G1 X246.632 Y96.095 E15.09341
G1 X246.636 Y172.572 E16.94660
G1 X246.517 Y173.956 E16.98024
G1 X246.221 Y175.246 E17.01232
G1 X245.519 Y177.022 E17.05858
G1 X244.498 Y178.616 E17.10448
G1 X243.626 Y179.613 E17.13656
G1 X242.523 Y180.561 E17.17181
G1 X241.094 Y181.452 E17.21260
G1 X239.626 Y182.066 E17.25116
G1 X238.050 Y182.450 E17.29047
G1 X236.504 Y182.578 E17.32806
G1 X124.361 Y182.578 E20.04550
G1 X122.876 Y182.459 E20.08160
G1 X121.585 Y182.166 E20.11367
G1 X119.807 Y181.471 E20.15993
G1 X118.193 Y180.442 E20.20632
G1 X117.192 Y179.568 E20.23852
G1 X116.240 Y178.461 E20.27390
G1 X115.350 Y177.032 E20.31469
G1 X114.737 Y175.569 E20.35313
G1 X114.354 Y173.998 E20.39232
G1 X114.224 Y172.472 E20.42942
G1 X114.224 Y96.273 E22.27586
G1 X114.343 Y94.809 E22.31147
G1 X114.636 Y93.518 E22.34354
G1 X115.304 Y91.815 E22.38786
; PURGING FINISHED
G1 F3360
G1 X115.899 Y90.866 E21.43785
G1 E21.38786 F3000.00000
G92 E0
G1 X172.868 Y172.419 F4200.000
G1 E1.00000 F3000.00000
G1 F720
G1 X172.868 Y176.232 E1.08134
G1 X173.603 Y176.232 E1.09703
G1 X173.603 Y172.585 E1.17484
G1 X174.339 Y172.585 E1.19054
G1 X174.339 Y176.232 E1.26835
G1 X175.074 Y176.232 E1.28404
G1 X175.074 Y172.585 E1.36185
G1 X175.810 Y172.585 E1.37754
G1 X175.810 Y176.232 E1.45535
G1 X176.546 Y176.232 E1.47104
G1 X176.546 Y172.585 E1.54885
G1 X176.715 Y172.585 E1.55247
G1 X177.116 Y172.184 E1.56455
G1 X177.116 Y166.054 E1.69533
G1 X177.281 Y166.054 E1.69886
G1 X177.281 Y176.232 E1.91600
G1 X178.017 Y176.232 E1.93169
G1 X178.017 Y166.054 E2.14883
G1 X178.753 Y166.054 E2.16452
G1 X178.753 Y176.232 E2.38165
G1 X179.488 Y176.232 E2.39735
G1 X179.488 Y166.054 E2.61448
G1 X180.224 Y166.054 E2.63017
G1 X180.224 Y176.232 E2.84731
G1 X180.959 Y176.232 E2.86300
G1 X180.959 Y166.054 E3.08013
G1 X181.695 Y166.054 E3.09583
G1 X181.695 Y176.232 E3.31296
G1 X182.431 Y176.232 E3.32865
G1 X182.431 Y166.054 E3.54579
G1 X183.166 Y166.054 E3.56148
G1 X183.166 Y176.232 E3.77862
G1 X183.902 Y176.232 E3.79431
G1 X183.902 Y166.054 E4.01144
G1 X184.637 Y166.054 E4.02713
G1 X184.637 Y176.232 E4.24427
G1 X185.373 Y176.232 E4.25996
G1 X185.373 Y166.054 E4.47710
G1 X186.109 Y166.054 E4.49279
G1 X186.109 Y176.232 E4.70992
G1 X186.844 Y176.232 E4.72562
G1 X186.844 Y166.054 E4.94275
G1 X187.580 Y166.054 E4.95844
G1 X187.580 Y176.232 E5.17558
G1 X188.316 Y176.232 E5.19127
G1 X188.316 Y166.054 E5.40841
G1 X189.051 Y166.054 E5.42410
G1 X189.051 Y176.232 E5.64123
G1 X189.787 Y176.232 E5.65692
G1 X189.787 Y166.054 E5.87406
G1 X190.522 Y166.054 E5.88975
G1 X190.522 Y176.232 E6.10689
G1 X191.258 Y176.232 E6.12258
G1 X191.258 Y166.054 E6.33971
G1 X191.994 Y166.054 E6.35541
G1 X191.994 Y176.232 E6.57254
G1 X192.729 Y176.232 E6.58823
G1 X192.729 Y166.054 E6.80537
G1 X193.465 Y166.054 E6.82106
G1 X193.465 Y176.232 E7.03819
G1 X194.201 Y176.232 E7.05389
G1 X194.201 Y166.054 E7.27102
G1 X194.936 Y166.054 E7.28671
G1 X194.936 Y176.232 E7.50385
G1 X195.672 Y176.232 E7.51954
G1 X195.672 Y166.054 E7.73668
G1 X196.407 Y166.054 E7.75237
G1 X196.407 Y176.232 E7.96950
G1 X197.143 Y176.232 E7.98519
G1 X197.143 Y166.054 E8.20233
G1 X197.879 Y166.054 E8.21802
G1 X197.879 Y176.232 E8.43516
G1 X198.614 Y176.232 E8.45085
G1 X198.614 Y166.054 E8.66798
G1 X199.350 Y166.054 E8.68368
G1 X199.350 Y176.232 E8.90081
G1 X200.085 Y176.232 E8.91650
G1 X200.085 Y172.522 E8.99566
G1 X200.148 Y172.585 E8.99756
G1 X200.821 Y172.585 E9.01191
G1 X200.821 Y176.232 E9.08972
G1 X201.557 Y176.232 E9.10541
G1 X201.557 Y172.585 E9.18322
G1 X202.292 Y172.585 E9.19891
G1 X202.292 Y176.232 E9.27672
G1 X203.028 Y176.232 E9.29241
G1 X203.028 Y172.585 E9.37022
G1 X203.764 Y172.585 E9.38592
G1 X203.764 Y176.398 E9.46726
G1 F3360
G1 X203.764 Y175.278 E8.51726
G1 E8.46726 F3000.00000
G92 E0
G1 X177.288 Y126.226 F4200.000
G1 E1.00000 F3000.00000
G1 F720
G1 X169.058 Y127.239 E1.20094
G1 X168.836 Y126.235 E1.22587
G1 X168.729 Y125.873 E1.23501
G1 X168.610 Y125.567 E1.24297
G1 X168.481 Y125.316 E1.24980
G1 X168.348 Y125.119 E1.25557
G1 X168.208 Y124.966 E1.26058
G1 X168.055 Y124.841 E1.26538
G1 X167.889 Y124.737 E1.27011
G1 X167.713 Y124.657 E1.27481
G1 X167.522 Y124.598 E1.27965
G1 X167.312 Y124.562 E1.28481
G1 X167.092 Y124.550 E1.29014
G1 X166.660 Y124.588 E1.30066
G1 X166.284 Y124.696 E1.31015
G1 X165.941 Y124.873 E1.31951
G1 X165.620 Y125.130 E1.32946
G1 X165.316 Y125.476 E1.34061
G1 X165.036 Y125.914 E1.35322
G1 X164.855 Y126.321 E1.36400
G1 X164.678 Y126.901 E1.37870
G1 X164.510 Y127.655 E1.39742
G1 X164.358 Y128.576 E1.42005
G1 X164.269 Y129.297 E1.43764
G1 X164.803 Y128.924 E1.45342
G1 X165.269 Y128.646 E1.46657
G1 X165.744 Y128.405 E1.47948
G1 X166.238 Y128.201 E1.49243
G1 X166.756 Y128.035 E1.50560
G1 X167.295 Y127.906 E1.51903
G1 X167.854 Y127.815 E1.53277
G1 X168.434 Y127.761 E1.54687
G1 X169.044 Y127.743 E1.56166
G1 X170.195 Y127.813 E1.58961
G1 X171.303 Y128.028 E1.61696
G1 X172.354 Y128.389 E1.64389
G1 X173.344 Y128.894 E1.67081
G1 X174.267 Y129.540 E1.69811
G1 X175.123 Y130.325 E1.72625
G1 X175.880 Y131.219 E1.75465
G1 X176.502 Y132.194 E1.78268
G1 X176.986 Y133.246 E1.81073
G1 X177.330 Y134.370 E1.83920
G1 X177.535 Y135.561 E1.86850
G1 X177.602 Y136.814 E1.89891
G1 X177.568 Y137.683 E1.91997
G1 X177.464 Y138.525 E1.94052
G1 X177.291 Y139.344 E1.96081
G1 X177.048 Y140.139 E1.98096
G1 X176.736 Y140.909 E2.00108
G1 X176.355 Y141.653 E2.02134
G1 X175.911 Y142.356 E2.04151
G1 X175.410 Y143.004 E2.06134
G1 X174.854 Y143.593 E2.08097
G1 X174.243 Y144.123 E2.10057
G1 X173.579 Y144.592 E2.12027
G1 X172.863 Y145.000 E2.14025
G1 X172.090 Y145.345 E2.16074
G1 X171.261 Y145.626 E2.18195
G1 X170.378 Y145.842 E2.20399
G1 X169.441 Y145.996 E2.22701
G1 X168.450 Y146.087 E2.25112
G1 X167.405 Y146.117 E2.27646
G1 X166.161 Y146.080 E2.30659
G1 X164.995 Y145.970 E2.33497
G1 X163.906 Y145.784 E2.36176
G1 X162.892 Y145.521 E2.38713
G1 X161.955 Y145.180 E2.41129
G1 X161.098 Y144.759 E2.43444
G1 X160.309 Y144.251 E2.45717
G1 X159.577 Y143.654 E2.48006
G1 X158.903 Y142.968 E2.50336
G1 X158.287 Y142.197 E2.52728
G1 X157.730 Y141.342 E2.55202
G1 X157.227 Y140.400 E2.57788
G1 X156.792 Y139.361 E2.60519
G1 X156.437 Y138.222 E2.63409
G1 X156.164 Y136.988 E2.66471
G1 X155.970 Y135.659 E2.69726
G1 X155.855 Y134.235 E2.73188
G1 X155.817 Y132.710 E2.76884
G1 X155.897 Y130.513 E2.82213
G1 X156.140 Y128.504 E2.87117
G1 X156.550 Y126.685 E2.91634
G1 X157.129 Y125.057 E2.95821
G1 X157.883 Y123.622 E2.99749
G1 X158.812 Y122.392 E3.03484
G1 X159.891 Y121.363 E3.07098
G1 X161.099 Y120.521 E3.10666
G1 X162.435 Y119.868 E3.14268
G1 X163.892 Y119.405 E3.17972
G1 X165.464 Y119.129 E3.21840
G1 X167.140 Y119.039 E3.25907
G1 X168.133 Y119.059 E3.28313
G1 X169.049 Y119.118 E3.30539
G1 X169.902 Y119.217 E3.32618
G1 X170.690 Y119.358 E3.34560
G1 X171.417 Y119.541 E3.36375
G1 X172.076 Y119.768 E3.38065
G1 X172.681 Y120.034 E3.39666
G1 X173.251 Y120.339 E3.41232
G1 X173.787 Y120.683 E3.42776
G1 X174.290 Y121.066 E3.44308
G1 X174.757 Y121.489 E3.45835
G1 X175.189 Y121.950 E3.47365
G1 X175.585 Y122.449 E3.48908
G1 X175.946 Y122.986 E3.50477
G1 X176.273 Y123.560 E3.52078
G1 X176.565 Y124.171 E3.53719
G1 X176.824 Y124.818 E3.55407
G1 X177.270 Y126.169 E3.58856
G1 X176.732 Y125.874 F4200.000
G1 F720
G1 X169.384 Y126.778 E3.76796
G1 X169.241 Y126.130 E3.78404
G1 X169.125 Y125.738 E3.79396
G1 X168.991 Y125.395 E3.80287
G1 X168.841 Y125.103 E3.81083
G1 X168.676 Y124.860 E3.81795
G1 X168.496 Y124.663 E3.82442
G1 X168.300 Y124.501 E3.83059
G1 X168.088 Y124.368 E3.83665
G1 X167.861 Y124.265 E3.84267
G1 X167.619 Y124.191 E3.84881
G1 X167.359 Y124.146 E3.85520
G1 X167.085 Y124.132 E3.86185
G1 X166.584 Y124.176 E3.87405
G1 X166.129 Y124.305 E3.88552
G1 X165.712 Y124.521 E3.89689
G1 X165.330 Y124.826 E3.90873
G1 X164.981 Y125.224 E3.92156
G1 X164.667 Y125.716 E3.93569
G1 X164.463 Y126.174 E3.94785
G1 X164.273 Y126.794 E3.96355
G1 X164.100 Y127.576 E3.98296
G1 X163.945 Y128.517 E4.00607
G1 X163.809 Y129.615 E4.03290
G1 X163.748 Y130.270 E4.04884
G1 X164.158 Y129.913 E4.06203
G1 X164.591 Y129.576 E4.07531
G1 X165.028 Y129.276 E4.08817
G1 X165.471 Y129.012 E4.10065
G1 X165.919 Y128.785 E4.11282
G1 X166.382 Y128.594 E4.12497
G1 X166.869 Y128.438 E4.13735
G1 X167.377 Y128.316 E4.15002
G1 X167.908 Y128.230 E4.16304
G1 X168.460 Y128.178 E4.17648
G1 X169.037 Y128.161 E4.19048
G1 X170.142 Y128.229 E4.21731
G1 X171.195 Y128.433 E4.24330
G1 X172.191 Y128.775 E4.26881
G1 X173.128 Y129.253 E4.29430
G1 X174.005 Y129.866 E4.32024
G1 X174.821 Y130.615 E4.34707
G1 X175.543 Y131.468 E4.37415
G1 X176.134 Y132.395 E4.40080
G1 X176.594 Y133.395 E4.42748
G1 X176.922 Y134.467 E4.45463
G1 X177.119 Y135.608 E4.48270
G1 X177.184 Y136.817 E4.51204
G1 X177.151 Y137.649 E4.53221
G1 X177.052 Y138.456 E4.55191
G1 X176.886 Y139.239 E4.57131
G1 X176.654 Y139.999 E4.59056
G1 X176.356 Y140.735 E4.60979
G1 X175.991 Y141.446 E4.62915
G1 X175.568 Y142.117 E4.64838
G1 X175.092 Y142.732 E4.66723
G1 X174.565 Y143.292 E4.68586
G1 X173.985 Y143.794 E4.70445
G1 X173.355 Y144.239 E4.72315
G1 X172.673 Y144.627 E4.74214
G1 X171.938 Y144.956 E4.76167
G1 X171.144 Y145.224 E4.78197
G1 X170.294 Y145.433 E4.80318
G1 X169.388 Y145.581 E4.82544
G1 X168.425 Y145.670 E4.84887
G1 X167.405 Y145.699 E4.87360
G1 X166.187 Y145.663 E4.90311
G1 X165.050 Y145.555 E4.93078
G1 X163.993 Y145.375 E4.95676
G1 X163.016 Y145.122 E4.98122
G1 X162.120 Y144.795 E5.00435
G1 X161.304 Y144.394 E5.02638
G1 X160.555 Y143.913 E5.04795
G1 X159.859 Y143.345 E5.06972
G1 X159.216 Y142.691 E5.09194
G1 X158.626 Y141.952 E5.11485
G1 X158.090 Y141.129 E5.13866
G1 X157.605 Y140.221 E5.16360
G1 X157.185 Y139.218 E5.18995
G1 X156.842 Y138.114 E5.21795
G1 X156.575 Y136.913 E5.24778
G1 X156.386 Y135.612 E5.27963
G1 X156.272 Y134.213 E5.31365
G1 X156.235 Y132.713 E5.35001
G1 X156.314 Y130.545 E5.40256
G1 X156.552 Y128.575 E5.45066
G1 X156.952 Y126.801 E5.49472
G1 X157.513 Y125.225 E5.53526
G1 X158.237 Y123.847 E5.57298
G1 X159.125 Y122.671 E5.60869
G1 X160.156 Y121.687 E5.64323
G1 X161.312 Y120.883 E5.67735
G1 X162.591 Y120.257 E5.71185
G1 X163.991 Y119.812 E5.74746
G1 X165.511 Y119.545 E5.78485
G1 X167.147 Y119.457 E5.82454
G1 X168.115 Y119.476 E5.84801
G1 X169.012 Y119.534 E5.86978
G1 X169.841 Y119.631 E5.89000
G1 X170.602 Y119.766 E5.90875
G1 X171.297 Y119.942 E5.92612
G1 X171.924 Y120.157 E5.94217
G1 X172.498 Y120.410 E5.95738
G1 X173.039 Y120.699 E5.97224
G1 X173.547 Y121.025 E5.98687
G1 X174.022 Y121.388 E6.00136
G1 X174.464 Y121.787 E6.01579
G1 X174.872 Y122.223 E6.03025
G1 X175.247 Y122.695 E6.04487
G1 X175.591 Y123.206 E6.05978
G1 X175.902 Y123.754 E6.07505
G1 X176.182 Y124.339 E6.09077
G1 X176.431 Y124.961 E6.10700
G1 X176.713 Y125.817 E6.12884
G1 X176.810 Y126.266 F4200.000
G1 F3360
G1 X175.603 Y125.963 E5.17884
G1 E5.12884 F3000.00000
G92 E0
G1 X179.553 Y119.487 F4200.000
G1 E1.00000 F3000.00000
G1 F720
G1 X188.526 Y119.487 E1.21742
G1 X188.526 Y127.800 E1.41885
G1 X195.647 Y119.487 E1.68409
G1 X207.671 Y119.487 E1.97545
G1 X197.904 Y129.610 E2.31631
G1 X207.712 Y145.669 E2.77227
G1 X196.704 Y145.669 E3.03901
G1 X191.694 Y135.884 E3.30537
G1 X188.526 Y139.204 E3.41657
G1 X188.526 Y145.669 E3.57323
G1 X179.553 Y145.669 E3.79065
G1 X179.553 Y119.547 E4.42363
G1 X179.971 Y119.905 F4200.000
G1 F720
G1 X188.108 Y119.905 E4.62080
G1 X188.108 Y128.930 E4.83948
G1 X195.839 Y119.905 E5.12744
G1 X206.688 Y119.905 E5.39031
G1 X197.380 Y129.552 E5.71515
G1 X206.967 Y145.251 E6.16089
G1 X196.959 Y145.251 E6.40339
G1 X191.798 Y135.170 E6.67782
G1 X188.108 Y139.036 E6.80732
G1 X188.108 Y145.251 E6.95792
G1 X179.971 Y145.251 E7.15509
G1 X179.971 Y119.965 E7.76781
G1 X179.929 Y119.507 F4200.000
G1 F3360
G1 X181.091 Y119.957 E6.81781
G1 E6.76781 F3000.00000
G92 E0
G1 X235.320 Y101.637 F4200.000
G1 E1.00000 F3000.00000
G1 F720
G1 X235.320 Y167.102 E2.58633
G1 X236.432 Y167.015 E2.61335
G1 X237.269 Y167.080 E2.63371
G1 X238.087 Y167.277 E2.65408
G1 X238.863 Y167.598 E2.67444
G1 X239.579 Y168.037 E2.69480
G1 X240.218 Y168.583 E2.71516
G1 X240.764 Y169.222 E2.73553
G1 X241.203 Y169.939 E2.75589
G1 X241.525 Y170.715 E2.77625
G1 X241.721 Y171.532 E2.79662
G1 X241.787 Y172.370 E2.81698
G1 X241.721 Y173.207 E2.83734
G1 X241.525 Y174.025 E2.85770
G1 X241.203 Y174.801 E2.87807
G1 X240.764 Y175.517 E2.89843
G1 X240.218 Y176.156 E2.91879
G1 X239.579 Y176.702 E2.93915
G1 X238.863 Y177.141 E2.95952
G1 X238.087 Y177.463 E2.97988
G1 X237.269 Y177.659 E3.00024
G1 X236.432 Y177.725 E3.02060
G1 X235.594 Y177.659 E3.04097
G1 X234.777 Y177.463 E3.06133
G1 X234.001 Y177.141 E3.08169
G1 X233.284 Y176.702 E3.10205
G1 X232.645 Y176.156 E3.12242
G1 X232.099 Y175.517 E3.14278
G1 X231.660 Y174.801 E3.16314
G1 X231.339 Y174.025 E3.18350
G1 X231.143 Y173.207 E3.20387
G1 X231.077 Y172.370 E3.22423
G1 X231.164 Y171.258 E3.25125
G1 X201.075 Y171.258 E3.98037
G1 X201.075 Y164.727 E4.13864
G1 X175.789 Y164.727 E4.75136
G1 X175.789 Y171.258 E4.90962
G1 X129.699 Y171.258 E6.02646
G1 X129.787 Y172.370 E6.05348
G1 X129.721 Y173.207 E6.07384
G1 X129.525 Y174.025 E6.09420
G1 X129.203 Y174.801 E6.11456
G1 X128.764 Y175.517 E6.13493
G1 X128.218 Y176.156 E6.15529
G1 X127.579 Y176.702 E6.17565
G1 X126.863 Y177.141 E6.19601
G1 X126.087 Y177.463 E6.21638
G1 X125.269 Y177.659 E6.23674
G1 X124.432 Y177.725 E6.25710
G1 X123.594 Y177.659 E6.27746
G1 X122.777 Y177.463 E6.29783
G1 X122.001 Y177.141 E6.31819
G1 X121.284 Y176.702 E6.33855
G1 X120.645 Y176.156 E6.35891
G1 X120.099 Y175.517 E6.37928
G1 X119.660 Y174.801 E6.39964
G1 X119.339 Y174.025 E6.42000
G1 X119.143 Y173.207 E6.44037
