; generated by Slic3r Prusa Edition 1.41.0+win64 on 2019-09-13 at 18:00:54

; 

; external perimeters extrusion width = 0.45mm
; perimeters extrusion width = 0.45mm
; infill extrusion width = 0.45mm
; solid infill extrusion width = 0.45mm
; top infill extrusion width = 0.40mm

M107
M80 ; turn on PSU
M190 S50
M104 S190 ; start E heating
M17; enable motors
G28 X Y Z ; Home
G29 ; Autolevel
M109 S190
G90
G0 X0 Y0 F5000
G0 Z0 F5000
G91
G1 E8 F200
G90
; Filament gcode
G21 ; set units to millimeters
G90 ; use absolute coordinates
M82 ; use absolute distances for extrusion
G92 E0
G1 Z0.150 F4200.000
G1 E-1.00000 F3000.00000
G92 E0
G1 X172.519 Y117.045 F4200.000
G1 E1.00000 F3000.00000
G1 F720
G1 X173.931 Y116.172 E1.04022
G1 X196.278 Y105.466 E1.64067
G1 X197.237 Y105.141 E1.66521
G1 X198.239 Y105.032 E1.68963
G1 X198.954 Y105.089 E1.70700
G1 X199.651 Y105.255 E1.72436
G1 X200.314 Y105.526 E1.74173
G1 X200.932 Y105.900 E1.75923
G1 X201.826 Y106.743 E1.78901
G1 X203.011 Y108.460 E1.83955
G1 X210.097 Y120.192 E2.17168
G1 X214.732 Y130.472 E2.44492
G1 X215.022 Y131.364 E2.46767
G1 X215.127 Y132.330 E2.49120
G1 X215.127 Y180.357 E3.65499
G1 X215.049 Y181.187 E3.67518
G1 X214.823 Y181.989 E3.69537
G1 X214.180 Y183.146 E3.72745
G1 X213.235 Y184.073 E3.75953
G1 X212.066 Y184.695 E3.79161
G1 X210.764 Y184.960 E3.82382
G1 X169.468 Y184.968 E4.82449
G1 X168.649 Y184.889 E4.84442
G1 X167.852 Y184.664 E4.86448
G1 X166.691 Y184.018 E4.89669
G1 X165.759 Y183.063 E4.92903
G1 X165.137 Y181.882 E4.96137
G1 X164.879 Y180.573 E4.99370
G1 X164.873 Y132.314 E6.16309
G1 X164.952 Y131.490 E6.18315
G1 X165.177 Y130.693 E6.20321
G1 X169.914 Y120.109 E6.48421
G1 X170.572 Y119.041 E6.51462
G1 X171.280 Y118.178 E6.54166
G1 X172.475 Y117.085 E6.58090
G1 X172.755 Y117.392 F4200.000
G1 F720
G1 X174.114 Y116.548 E6.61965
G1 X196.447 Y105.848 E7.21975
G1 X197.319 Y105.551 E7.24206
G1 X198.239 Y105.450 E7.26449
G1 X198.900 Y105.503 E7.28056
G1 X199.549 Y105.661 E7.29676
G1 X200.161 Y105.917 E7.31283
G1 X200.725 Y106.267 E7.32890
G1 X201.523 Y107.033 E7.35572
G1 X202.670 Y108.702 E7.40479
G1 X209.726 Y120.384 E7.73548
G1 X214.351 Y130.642 E8.00815
G1 X214.618 Y131.470 E8.02923
G1 X214.709 Y132.330 E8.05020
G1 X214.709 Y180.356 E9.21396
G1 X214.638 Y181.112 E9.23236
G1 X214.430 Y181.848 E9.25088
G1 X213.841 Y182.901 E9.28013
G1 X212.977 Y183.744 E9.30938
G1 X211.909 Y184.307 E9.33863
G1 X210.720 Y184.544 E9.36801
G1 X169.475 Y184.550 E10.36746
G1 X168.724 Y184.478 E10.38573
G1 X167.993 Y184.271 E10.40413
G1 X166.936 Y183.679 E10.43350
G1 X166.088 Y182.805 E10.46300
G1 X165.525 Y181.726 E10.49249
G1 X165.295 Y180.531 E10.52199
G1 X165.291 Y132.316 E11.69033
G1 X165.363 Y131.565 E11.70860
G1 X165.570 Y130.834 E11.72700
G1 X170.280 Y120.312 E12.00636
G1 X170.915 Y119.279 E12.03574
G1 X171.599 Y118.448 E12.06181
G1 X172.711 Y117.433 E12.09830
; PURGING FINISHED
G1 F3360
G1 X173.658 Y116.835 E11.14830
G1 E11.09830 F3000.00000
G92 E0
G1 X205.677 Y160.520 F4200.000
G1 E1.00000 F3000.00000
G1 F720
G1 X206.304 Y160.200 E1.01707
G1 X206.975 Y160.094 E1.03353
G1 X207.692 Y160.199 E1.05107
G1 X208.323 Y160.520 E1.06824
G1 X208.821 Y161.018 E1.08530
G1 X209.141 Y161.646 E1.10236
G1 X209.251 Y162.341 E1.11943
G1 X209.140 Y163.041 E1.13659
G1 X208.803 Y163.682 E1.15414
G1 X208.323 Y164.162 E1.17060
G1 X207.696 Y164.482 E1.18766
G1 X207.000 Y164.592 E1.20473
G1 X206.304 Y164.482 E1.22179
G1 X205.677 Y164.162 E1.23886
G1 X205.179 Y163.664 E1.25592
G1 X204.859 Y163.037 E1.27299
G1 X204.749 Y162.341 E1.29005
G1 X204.859 Y161.646 E1.30711
G1 X205.179 Y161.018 E1.32418
G1 X205.635 Y160.563 E1.33979
G1 X205.926 Y160.862 F4200.000
G1 F720
G1 X206.435 Y160.603 E1.35365
G1 X206.978 Y160.517 E1.36696
G1 X207.564 Y160.602 E1.38130
G1 X208.074 Y160.862 E1.39519
G1 X208.479 Y161.267 E1.40905
G1 X208.738 Y161.776 E1.42291
G1 X208.828 Y162.341 E1.43677
G1 X208.738 Y162.907 E1.45066
G1 X208.463 Y163.431 E1.46500
G1 X208.074 Y163.820 E1.47831
G1 X207.565 Y164.079 E1.49217
G1 X207.000 Y164.169 E1.50603
G1 X206.435 Y164.079 E1.51989
G1 X205.926 Y163.820 E1.53374
G1 X205.521 Y163.415 E1.54760
G1 X205.262 Y162.906 E1.56146
G1 X205.172 Y162.341 E1.57532
G1 X205.262 Y161.776 E1.58917
G1 X205.521 Y161.267 E1.60303
G1 X205.883 Y160.905 E1.61543
G1 X205.884 Y160.465 F4200.000
G1 F3360
G1 X206.435 Y160.603 E1.08167
G1 X206.920 Y160.526 E0.66543
G1 E0.61543 F3000.00000
G92 E0
G1 X180.390 Y175.277 F4200.000
G1 E1.00000 F3000.00000
G1 F720
G1 X180.559 Y175.797 E1.01325
G1 X180.616 Y176.341 E1.02651
G1 X180.559 Y176.885 E1.03976
G1 X180.390 Y177.405 E1.05302
G1 X180.117 Y177.879 E1.06627
G1 X179.751 Y178.286 E1.07953
G1 X179.308 Y178.607 E1.09278
G1 X178.809 Y178.829 E1.10603
G1 X178.274 Y178.943 E1.11929
G1 X177.726 Y178.943 E1.13255
G1 X177.191 Y178.829 E1.14580
G1 X176.692 Y178.607 E1.15905
G1 X176.249 Y178.286 E1.17230
G1 X175.883 Y177.879 E1.18556
G1 X175.608 Y177.402 E1.19890
G1 X175.439 Y176.872 E1.21239
G1 X175.384 Y176.341 E1.22532
G1 X175.441 Y175.797 E1.23858
G1 X175.610 Y175.277 E1.25183
G1 X175.883 Y174.803 E1.26508
G1 X176.249 Y174.397 E1.27834
G1 X176.692 Y174.075 E1.29160
G1 X177.191 Y173.853 E1.30485
G1 X177.726 Y173.739 E1.31810
G1 X178.274 Y173.739 E1.33136
G1 X178.809 Y173.853 E1.34461
G1 X179.308 Y174.075 E1.35786
G1 X179.751 Y174.397 E1.37112
G1 X180.117 Y174.803 E1.38438
G1 X180.360 Y175.225 E1.39618
G1 X179.998 Y175.434 F4200.000
G1 F720
G1 X180.148 Y175.884 E1.40768
G1 X180.196 Y176.341 E1.41881
G1 X180.148 Y176.798 E1.42994
G1 X180.006 Y177.234 E1.44106
G1 X179.777 Y177.632 E1.45219
G1 X179.470 Y177.973 E1.46332
G1 X179.098 Y178.243 E1.47444
G1 X178.679 Y178.430 E1.48557
G1 X178.230 Y178.525 E1.49669
G1 X177.770 Y178.525 E1.50782
G1 X177.321 Y178.430 E1.51895
G1 X176.902 Y178.243 E1.53007
G1 X176.530 Y177.973 E1.54120
G1 X176.223 Y177.632 E1.55233
G1 X175.993 Y177.233 E1.56350
G1 X175.850 Y176.786 E1.57487
G1 X175.804 Y176.341 E1.58570
G1 X175.852 Y175.884 E1.59683
G1 X175.994 Y175.448 E1.60795
G1 X176.223 Y175.050 E1.61908
G1 X176.530 Y174.709 E1.63021
G1 X176.902 Y174.439 E1.64133
G1 X177.321 Y174.252 E1.65246
G1 X177.770 Y174.157 E1.66358
G1 X178.230 Y174.157 E1.67471
G1 X178.679 Y174.252 E1.68584
G1 X179.098 Y174.439 E1.69696
G1 X179.470 Y174.709 E1.70809
G1 X179.777 Y175.050 E1.71922
G1 X179.968 Y175.382 E1.72850
G1 X179.607 Y175.591 F4200.000
G1 F720
G1 X179.737 Y175.972 E1.73826
G1 X179.776 Y176.341 E1.74726
G1 X179.737 Y176.710 E1.75626
G1 X179.623 Y177.063 E1.76526
G1 X179.437 Y177.385 E1.77426
G1 X179.189 Y177.661 E1.78325
G1 X178.888 Y177.879 E1.79225
G1 X178.549 Y178.030 E1.80125
G1 X178.186 Y178.108 E1.81025
G1 X177.814 Y178.108 E1.81925
G1 X177.451 Y178.030 E1.82824
G1 X177.112 Y177.879 E1.83724
G1 X176.811 Y177.661 E1.84624
G1 X176.563 Y177.385 E1.85524
G1 X176.377 Y177.063 E1.86425
G1 X176.261 Y176.700 E1.87349
G1 X176.224 Y176.341 E1.88223
G1 X176.263 Y175.972 E1.89123
G1 X176.377 Y175.619 E1.90022
G1 X176.563 Y175.297 E1.90922
G1 X176.811 Y175.021 E1.91822
G1 X177.112 Y174.803 E1.92722
G1 X177.451 Y174.652 E1.93622
G1 X177.814 Y174.575 E1.94521
G1 X178.186 Y174.575 E1.95421
G1 X178.549 Y174.652 E1.96321
G1 X178.888 Y174.803 E1.97221
G1 X179.189 Y175.021 E1.98121
G1 X179.437 Y175.297 E1.99020
G1 X179.577 Y175.539 E1.99697
G1 X180.005 Y175.627 F4200.000
G1 F3360
G1 X179.737 Y175.972 E1.60517
G1 X179.776 Y176.341 E1.29016
G1 X179.746 Y176.626 E1.04697
G1 E0.99697 F3000.00000
G92 E0
G1 X170.561 Y179.280 F4200.000
G1 E1.00000 F3000.00000
G1 F720
G1 X170.561 Y161.402 E1.43324
G1 X204.515 Y161.402 E2.25601
G1 X204.457 Y161.515 E2.25908
G1 X204.326 Y162.341 E2.27935
G1 X204.457 Y163.167 E2.29962
G1 X204.837 Y163.913 E2.31990
G1 X205.428 Y164.504 E2.34017
G1 X206.174 Y164.884 E2.36044
G1 X207.000 Y165.015 E2.38071
G1 X207.826 Y164.884 E2.40098
G1 X208.572 Y164.504 E2.42125
G1 X209.144 Y163.932 E2.44086
G1 X209.439 Y163.369 E2.45627
G1 X209.439 Y179.280 E2.84183
G1 X170.621 Y179.280 E3.78248
G1 F3360
G1 X170.617 Y178.160 E2.83248
G1 E2.78248 F3000.00000
G92 E0
G1 X209.467 Y160.984 F4200.000
G1 E1.00000 F3000.00000
G1 F720
G1 X209.857 Y160.984 E1.00947
G1 X209.857 Y179.698 E1.46295
G1 X170.143 Y179.698 E2.42530
G1 X170.143 Y160.984 E2.87879
G1 X204.533 Y160.984 E3.71214
G1 X204.695 Y160.666 E3.72077
G1 X205.325 Y160.036 E3.74237
G1 X206.120 Y159.631 E3.76397
G1 X207.000 Y159.492 E3.78557
G1 X207.880 Y159.631 E3.80717
G1 X208.675 Y160.036 E3.82877
G1 X209.305 Y160.666 E3.85037
G1 X209.439 Y160.930 E3.85755
G1 X209.723 Y160.566 F4200.000
G1 F720
G1 X210.275 Y160.566 E3.87093
G1 X210.275 Y180.116 E4.34467
G1 X169.725 Y180.116 E5.32727
G1 X169.725 Y160.566 E5.80100
G1 X204.277 Y160.566 E6.63827
G1 X204.353 Y160.418 E6.64230
G1 X205.077 Y159.694 E6.66711
G1 X205.989 Y159.229 E6.69192
G1 X207.000 Y159.069 E6.71672
G1 X208.011 Y159.229 E6.74153
G1 X208.923 Y159.694 E6.76634
G1 X209.647 Y160.418 E6.79115
G1 X209.696 Y160.513 E6.79373
G1 X209.821 Y160.954 F4200.000
G1 X209.436 Y161.193
G1 F720
G1 X209.514 Y161.813 E6.80490
G1 X209.555 Y162.356 E6.81081
G1 X209.533 Y162.626 E6.81430
G1 X209.512 Y162.896 E6.81834
G1 X209.491 Y163.167 E6.82293
G1 X209.648 Y161.632 F4200.000
G1 F720
G1 X209.455 Y161.432 E6.82676
G1 X209.261 Y161.232 E6.83008
G1 X209.062 Y160.842 E6.83447
G1 X208.498 Y160.278 E6.84248
G1 X207.788 Y159.916 E6.85049
G1 X207.000 Y159.795 E6.85849
G1 X206.212 Y159.916 E6.86649
G1 X205.502 Y160.278 E6.87450
G1 X204.938 Y160.842 E6.88251
G1 X204.759 Y161.193 E6.88646
G1 X203.563 Y161.581 F4200.000
G1 F720
G1 X204.004 Y162.023 E6.90173
G1 X203.954 Y162.341 E6.90961
G1 X203.997 Y162.612 E6.91631
G1 X203.154 Y161.769 E6.94544
G1 X202.558 Y161.769 E6.96002
G1 X204.136 Y163.347 E7.01458
G1 F3360
G1 X203.344 Y162.555 E6.06458
G1 E6.01458 F3000.00000
G92 E0
G1 X205.994 Y165.205 F4200.000
G1 E1.00000 F3000.00000
G1 F720
G1 X209.072 Y168.283 E1.10644
G1 X209.072 Y167.687 E1.12102
G1 X206.729 Y165.344 E1.20202
G1 X207.000 Y165.387 E1.20872
G1 X207.318 Y165.337 E1.21660
G1 X209.072 Y167.090 E1.27724
G1 X209.072 Y166.494 E1.29182
G1 X207.833 Y165.255 E1.33466
G1 X207.941 Y165.238 E1.33734
G1 X208.253 Y165.079 E1.34590
G1 X209.072 Y165.898 E1.37421
G1 X209.072 Y165.302 E1.38879
G1 X208.648 Y164.878 E1.40344
G1 X208.790 Y164.805 E1.40735
G1 X208.981 Y164.615 E1.41394
G1 X209.260 Y164.893 E1.42358
G1 F3360
G1 X208.981 Y164.615 E1.08936
G1 X208.790 Y164.805 E0.86070
G1 X208.648 Y164.878 E0.72510
G1 X208.858 Y165.088 E0.47358
G1 E0.42358 F3000.00000
G92 E0
G1 X209.260 Y169.067 F4200.000
G1 E1.00000 F3000.00000
G1 F720
G1 X201.962 Y161.769 E1.25237
G1 X201.366 Y161.769 E1.26695
G1 X209.072 Y169.475 E1.53343
G1 X209.072 Y170.072 E1.54801
G1 X200.769 Y161.769 E1.83512
G1 X200.173 Y161.769 E1.84970
G1 X209.072 Y170.668 E2.15742
G1 X209.072 Y171.264 E2.17200
G1 X199.577 Y161.769 E2.50035
G1 X198.981 Y161.769 E2.51493
G1 X209.072 Y171.860 E2.86389
G1 X209.072 Y172.457 E2.87847
G1 X198.384 Y161.769 E3.24805
G1 X197.788 Y161.769 E3.26263
G1 X209.072 Y173.053 E3.65283
G1 X209.072 Y173.649 E3.66741
G1 X197.192 Y161.769 E4.07824
G1 X196.596 Y161.769 E4.09282
G1 X209.072 Y174.245 E4.52426
G1 X209.072 Y174.842 E4.53884
G1 X195.999 Y161.769 E4.99090
G1 X195.403 Y161.769 E5.00548
G1 X209.072 Y175.438 E5.47816
G1 X209.072 Y176.034 E5.49274
G1 X194.807 Y161.769 E5.98603
G1 X194.211 Y161.769 E6.00061
G1 X209.072 Y176.630 E6.51453
G1 X209.072 Y177.227 E6.52911
G1 X193.614 Y161.769 E7.06365
G1 X193.018 Y161.769 E7.07823
G1 X209.072 Y177.823 E7.63339
G1 X209.072 Y178.419 E7.64797
G1 X192.422 Y161.769 E8.22374
G1 X191.826 Y161.769 E8.23832
G1 X208.969 Y178.913 E8.83117
G1 X208.373 Y178.913 E8.84575
G1 X191.229 Y161.769 E9.43859
G1 X190.633 Y161.769 E9.45317
G1 X207.776 Y178.913 E10.04601
G1 X207.180 Y178.913 E10.06059
G1 X190.037 Y161.769 E10.65344
G1 X189.441 Y161.769 E10.66802
G1 X206.584 Y178.913 E11.26086
G1 X205.988 Y178.913 E11.27544
G1 X188.844 Y161.769 E11.86828
G1 X188.248 Y161.769 E11.88286
G1 X205.391 Y178.913 E12.47570
G1 X204.795 Y178.913 E12.49028
G1 X187.652 Y161.769 E13.08313
G1 X187.055 Y161.769 E13.09771
G1 X204.199 Y178.913 E13.69055
G1 X203.603 Y178.913 E13.70513
G1 X186.459 Y161.769 E14.29797
G1 X185.863 Y161.769 E14.31255
G1 X203.006 Y178.913 E14.90540
G1 X202.410 Y178.913 E14.91998
G1 X185.267 Y161.769 E15.51282
G1 X184.670 Y161.769 E15.52740
G1 X201.814 Y178.913 E16.12024
G1 X201.218 Y178.913 E16.13482
G1 X184.074 Y161.769 E16.72767
G1 X183.478 Y161.769 E16.74225
G1 X200.621 Y178.913 E17.33509
G1 X200.025 Y178.913 E17.34967
G1 X182.882 Y161.769 E17.94251
G1 X182.285 Y161.769 E17.95709
G1 X199.429 Y178.913 E18.54994
G1 X198.833 Y178.913 E18.56452
G1 X181.689 Y161.769 E19.15736
G1 X181.093 Y161.769 E19.17194
G1 X198.236 Y178.913 E19.76478
G1 X197.640 Y178.913 E19.77936
G1 X180.497 Y161.769 E20.37221
G1 X179.900 Y161.769 E20.38679
G1 X197.044 Y178.913 E20.97963
G1 X196.448 Y178.913 E20.99421
G1 X179.304 Y161.769 E21.58705
G1 X178.708 Y161.769 E21.60163
G1 X195.851 Y178.913 E22.19448
G1 X195.255 Y178.913 E22.20906
G1 X178.112 Y161.769 E22.80190
G1 X177.515 Y161.769 E22.81648
G1 X194.659 Y178.913 E23.40932
G1 X194.063 Y178.913 E23.42390
G1 X176.919 Y161.769 E24.01675
G1 X176.323 Y161.769 E24.03133
G1 X193.466 Y178.913 E24.62417
G1 X192.870 Y178.913 E24.63875
G1 X175.727 Y161.769 E25.23159
G1 X175.130 Y161.769 E25.24617
G1 X192.274 Y178.913 E25.83901
G1 X191.678 Y178.913 E25.85359
G1 X174.534 Y161.769 E26.44644
G1 X173.938 Y161.769 E26.46102
G1 X191.081 Y178.913 E27.05386
G1 X190.485 Y178.913 E27.06844
G1 X173.342 Y161.769 E27.66128
G1 X172.745 Y161.769 E27.67586
G1 X189.889 Y178.913 E28.26871
G1 X189.293 Y178.913 E28.28329
G1 X172.149 Y161.769 E28.87613
G1 X171.553 Y161.769 E28.89071
G1 X188.696 Y178.913 E29.48355
G1 X188.100 Y178.913 E29.49813
G1 X170.957 Y161.769 E30.09098
G1 X170.928 Y161.769 E30.09167
G1 X170.928 Y162.337 E30.10556
G1 X187.504 Y178.913 E30.67876
G1 X186.908 Y178.913 E30.69334
G1 X170.928 Y162.934 E31.24592
G1 X170.928 Y163.530 E31.26050
G1 X186.311 Y178.913 E31.79247
G1 X185.715 Y178.913 E31.80705
G1 X170.928 Y164.126 E32.31839
G1 X170.928 Y164.722 E32.33297
G1 X185.119 Y178.913 E32.82370
G1 X184.522 Y178.913 E32.83828
G1 X170.928 Y165.319 E33.30838
G1 X170.928 Y165.915 E33.32296
G1 X178.404 Y173.391 E33.58149
G1 X178.312 Y173.371 E33.58380
G1 X177.788 Y173.371 E33.59660
G1 X170.928 Y166.511 E33.83384
G1 X170.928 Y167.107 E33.84842
G1 X177.279 Y173.458 E34.06804
G1 X177.077 Y173.501 E34.07309
G1 X176.834 Y173.609 E34.07960
G1 X170.928 Y167.704 E34.28383
G1 X170.928 Y168.300 E34.29841
G1 X176.435 Y173.807 E34.48885
G1 X176.090 Y174.058 E34.49929
G1 X170.928 Y168.896 E34.67779
G1 X170.928 Y169.492 E34.69237
G1 X175.791 Y174.356 E34.86055
G1 X175.584 Y174.586 E34.86812
G1 X175.526 Y174.686 E34.87096
G1 X170.928 Y170.089 E35.02996
G1 X170.928 Y170.685 E35.04454
G1 X175.308 Y175.064 E35.19599
G1 X175.272 Y175.127 E35.19775
G1 X175.150 Y175.503 E35.20742
G1 X170.928 Y171.281 E35.35340
G1 X170.928 Y171.877 E35.36798
G1 X175.050 Y175.999 E35.51051
G1 X175.014 Y176.341 E35.51892
G1 X175.039 Y176.585 E35.52492
G1 X170.928 Y172.474 E35.66709
G1 X170.928 Y173.070 E35.68167
G1 X175.592 Y177.733 E35.84294
G1 X176.363 Y179.101 F4200.000
G1 F720
G1 X170.928 Y173.666 E36.03088
G1 X170.928 Y174.262 E36.04546
G1 X175.579 Y178.913 E36.20627
G1 X174.982 Y178.913 E36.22085
G1 X170.928 Y174.859 E36.36105
G1 X170.928 Y175.455 E36.37563
G1 X174.386 Y178.913 E36.49521
G1 X173.790 Y178.913 E36.50979
G1 X170.928 Y176.051 E36.60874
G1 X170.928 Y176.647 E36.62332
G1 X173.194 Y178.913 E36.70166
G1 X172.597 Y178.913 E36.71624
G1 X170.928 Y177.244 E36.77396
G1 X170.928 Y177.840 E36.78854
G1 X172.001 Y178.913 E36.82564
G1 X171.405 Y178.913 E36.84022
G1 X170.740 Y178.248 E36.86320
G1 F3360
G1 X171.405 Y178.913 E36.06599
G1 X171.585 Y178.913 E35.91320
G1 E35.86320 F3000.00000
G92 E0
G1 X179.940 Y179.101 F4200.000
G1 E1.00000 F3000.00000
G1 F720
G1 X179.652 Y178.812 E1.00999
G1 X179.997 Y178.561 E1.02043
G1 X180.349 Y178.913 E1.03259
G1 X180.945 Y178.913 E1.04717
G1 X180.280 Y178.248 E1.07018
G1 X180.416 Y178.096 E1.07515
G1 X180.529 Y177.900 E1.08068
G1 X181.541 Y178.913 E1.11569
