; generated by Slic3r Prusa Edition 1.41.0+win64 on 2019-09-14 at 22:32:43

; 

; external perimeters extrusion width = 0.45mm
; perimeters extrusion width = 0.45mm
; infill extrusion width = 0.45mm
; solid infill extrusion width = 0.45mm
; top infill extrusion width = 0.40mm

M107
M80 ; turn on PSU
M190 S50
M104 S190 ; start E heating
M17; enable motors
G28 X Y Z ; Home
G29 ; Autolevel
M109 S190
G90
G0 X0 Y0 F5000
G0 Z0 F5000
G91
G1 E8 F200
G90
; Filament gcode
G21 ; set units to millimeters
G90 ; use absolute coordinates
M82 ; use absolute distances for extrusion
G92 E0
G1 Z0.150 F4200.000
G1 E-1.00000 F3000.00000
G92 E0
G1 X143.047 Y129.189 F4200.000
G1 E1.00000 F3000.00000
G1 F720
G1 X143.884 Y128.637 E1.02429
G1 X144.820 Y128.278 E1.04858
G1 X145.816 Y128.128 E1.07300
G1 X187.005 Y128.125 E2.07109
G1 X187.872 Y128.207 E2.09218
G1 X188.702 Y128.449 E2.11314
G1 X189.478 Y128.844 E2.13422
G1 X190.165 Y129.377 E2.15531
G1 X190.741 Y130.029 E2.17640
G1 X191.183 Y130.773 E2.19735
G1 X191.478 Y131.586 E2.21831
G1 X191.617 Y132.445 E2.23940
G1 X191.626 Y180.836 E3.41200
G1 X191.553 Y181.576 E3.43001
G1 X191.362 Y182.294 E3.44802
G1 X191.059 Y182.973 E3.46603
G1 X190.651 Y183.594 E3.48404
G1 X189.932 Y184.330 E3.50897
G1 X189.069 Y184.890 E3.53390
G1 X188.103 Y185.244 E3.55883
G1 X187.078 Y185.377 E3.58388
G1 X145.899 Y185.377 E4.58172
G1 X145.165 Y185.302 E4.59960
G1 X144.452 Y185.111 E4.61748
G1 X143.774 Y184.807 E4.63549
G1 X143.158 Y184.402 E4.65337
G1 X142.421 Y183.683 E4.67830
G1 X141.859 Y182.815 E4.70336
G1 X141.504 Y181.844 E4.72841
G1 X141.374 Y180.818 E4.75347
G1 X141.374 Y132.661 E5.92041
G1 X141.447 Y131.927 E5.93829
G1 X141.638 Y131.208 E5.95630
G1 X141.941 Y130.530 E5.97431
G1 X142.349 Y129.909 E5.99232
G1 X143.005 Y129.232 E6.01516
G1 X143.304 Y129.524 F4200.000
G1 F720
G1 X144.089 Y129.001 E6.03801
G1 X144.940 Y128.678 E6.06007
G1 X145.846 Y128.545 E6.08226
G1 X187.005 Y128.542 E7.07962
G1 X187.791 Y128.617 E7.09876
G1 X188.554 Y128.840 E7.11801
G1 X189.257 Y129.199 E7.13714
G1 X189.884 Y129.686 E7.15639
G1 X190.406 Y130.279 E7.17553
G1 X190.810 Y130.963 E7.19478
G1 X191.078 Y131.711 E7.21403
G1 X191.201 Y132.496 E7.23329
G1 X191.208 Y180.822 E8.40432
G1 X191.142 Y181.497 E8.42076
G1 X190.967 Y182.158 E8.43732
G1 X190.687 Y182.781 E8.45389
G1 X190.310 Y183.351 E8.47045
G1 X189.657 Y184.015 E8.49300
G1 X188.870 Y184.522 E8.51568
G1 X187.991 Y184.842 E8.53835
G1 X187.063 Y184.960 E8.56102
G1 X145.914 Y184.959 E9.55814
G1 X145.239 Y184.891 E9.57458
G1 X144.584 Y184.715 E9.59102
G1 X143.965 Y184.436 E9.60746
G1 X143.400 Y184.061 E9.62390
G1 X142.733 Y183.405 E9.64658
G1 X142.227 Y182.617 E9.66925
G1 X141.908 Y181.737 E9.69192
G1 X141.791 Y180.809 E9.71460
G1 X141.792 Y132.675 E10.88097
G1 X141.860 Y131.995 E10.89753
G1 X142.035 Y131.340 E10.91397
G1 X142.313 Y130.721 E10.93041
G1 X142.690 Y130.151 E10.94698
G1 X143.262 Y129.567 E10.96678
; PURGING FINISHED
G1 F3360
G1 X144.089 Y129.001 E10.11690
G1 X144.199 Y128.959 E10.01678
G1 E9.96678 F3000.00000
G92 E0
G1 X181.679 Y149.428 F4200.000
G1 E1.00000 F3000.00000
G1 F720
G1 X182.177 Y148.930 E1.01706
G1 X182.804 Y148.611 E1.03413
G1 X183.483 Y148.503 E1.05078
G1 X184.193 Y148.609 E1.06817
G1 X184.823 Y148.930 E1.08531
G1 X185.321 Y149.428 E1.10237
G1 X185.641 Y150.056 E1.11943
G1 X185.751 Y150.751 E1.13650
G1 X185.640 Y151.449 E1.15363
G1 X185.309 Y152.086 E1.17102
G1 X184.823 Y152.572 E1.18767
G1 X184.196 Y152.892 E1.20474
G1 X183.500 Y153.002 E1.22180
G1 X182.804 Y152.892 E1.23887
G1 X182.177 Y152.572 E1.25593
G1 X181.679 Y152.074 E1.27300
G1 X181.359 Y151.447 E1.29006
G1 X181.249 Y150.751 E1.30713
G1 X181.359 Y150.056 E1.32419
G1 X181.652 Y149.482 E1.33980
G1 X182.021 Y149.677 F4200.000
G1 F720
G1 X182.426 Y149.273 E1.35366
G1 X182.935 Y149.013 E1.36752
G1 X183.485 Y148.926 E1.38101
G1 X184.064 Y149.012 E1.39519
G1 X184.574 Y149.273 E1.40907
G1 X184.979 Y149.677 E1.42293
G1 X185.238 Y150.186 E1.43679
G1 X185.328 Y150.751 E1.45064
G1 X185.238 Y151.317 E1.46452
G1 X184.968 Y151.836 E1.47871
G1 X184.574 Y152.230 E1.49220
G1 X184.065 Y152.490 E1.50606
G1 X183.500 Y152.579 E1.51991
G1 X182.935 Y152.490 E1.53377
G1 X182.426 Y152.230 E1.54763
G1 X182.021 Y151.826 E1.56148
G1 X181.762 Y151.316 E1.57534
G1 X181.672 Y150.751 E1.58920
G1 X181.762 Y150.186 E1.60306
G1 X181.994 Y149.730 E1.61546
G1 X181.859 Y149.311 F4200.000
G1 F3360
G1 X182.426 Y149.273 E1.08184
G1 X182.863 Y149.050 E0.66546
G1 E0.61546 F3000.00000
G92 E0
G1 X156.890 Y137.815 F4200.000
G1 E1.00000 F3000.00000
G1 F720
G1 X156.617 Y138.289 E1.01325
G1 X156.251 Y138.696 E1.02651
G1 X155.808 Y139.017 E1.03976
G1 X155.309 Y139.240 E1.05302
G1 X154.773 Y139.353 E1.06627
G1 X154.227 Y139.353 E1.07953
G1 X153.691 Y139.240 E1.09278
G1 X153.192 Y139.017 E1.10604
G1 X152.749 Y138.696 E1.11929
G1 X152.383 Y138.289 E1.13255
G1 X152.110 Y137.815 E1.14580
G1 X151.941 Y137.295 E1.15905
G1 X151.884 Y136.751 E1.17231
G1 X151.941 Y136.207 E1.18556
G1 X152.110 Y135.687 E1.19882
G1 X152.383 Y135.213 E1.21207
G1 X152.749 Y134.807 E1.22533
G1 X153.192 Y134.485 E1.23858
G1 X153.691 Y134.263 E1.25184
G1 X154.227 Y134.149 E1.26509
G1 X154.773 Y134.149 E1.27835
G1 X155.309 Y134.263 E1.29160
G1 X155.808 Y134.485 E1.30486
G1 X156.251 Y134.807 E1.31811
G1 X156.617 Y135.213 E1.33136
G1 X156.894 Y135.694 E1.34480
G1 X157.063 Y136.238 E1.35862
G1 X157.116 Y136.751 E1.37112
G1 X157.059 Y137.295 E1.38437
G1 X156.909 Y137.758 E1.39617
G1 X156.511 Y137.629 F4200.000
G1 F720
G1 X156.277 Y138.042 E1.40768
G1 X155.970 Y138.383 E1.41881
G1 X155.598 Y138.653 E1.42993
G1 X155.179 Y138.840 E1.44106
G1 X154.730 Y138.936 E1.45219
G1 X154.270 Y138.936 E1.46331
G1 X153.821 Y138.840 E1.47444
G1 X153.402 Y138.653 E1.48556
G1 X153.030 Y138.383 E1.49669
G1 X152.723 Y138.042 E1.50782
G1 X152.494 Y137.645 E1.51894
G1 X152.352 Y137.208 E1.53007
G1 X152.304 Y136.751 E1.54120
G1 X152.352 Y136.295 E1.55232
G1 X152.494 Y135.858 E1.56345
G1 X152.723 Y135.460 E1.57458
G1 X153.030 Y135.119 E1.58570
G1 X153.402 Y134.849 E1.59683
G1 X153.821 Y134.662 E1.60795
G1 X154.270 Y134.567 E1.61908
G1 X154.730 Y134.567 E1.63021
G1 X155.179 Y134.662 E1.64133
G1 X155.598 Y134.849 E1.65246
G1 X155.970 Y135.119 E1.66359
G1 X156.277 Y135.460 E1.67471
G1 X156.509 Y135.862 E1.68595
G1 X156.651 Y136.323 E1.69764
G1 X156.696 Y136.751 E1.70808
G1 X156.648 Y137.208 E1.71921
G1 X156.530 Y137.572 E1.72849
G1 X156.133 Y137.443 F4200.000
G1 F720
G1 X155.937 Y137.795 E1.73825
G1 X155.689 Y138.071 E1.74725
G1 X155.388 Y138.289 E1.75625
G1 X155.049 Y138.441 E1.76525
G1 X154.686 Y138.518 E1.77424
G1 X154.314 Y138.518 E1.78324
G1 X153.951 Y138.441 E1.79224
G1 X153.612 Y138.289 E1.80124
G1 X153.311 Y138.071 E1.81024
G1 X153.063 Y137.795 E1.81923
G1 X152.877 Y137.474 E1.82823
G1 X152.763 Y137.121 E1.83723
G1 X152.724 Y136.751 E1.84623
G1 X152.763 Y136.382 E1.85523
G1 X152.877 Y136.029 E1.86423
G1 X153.063 Y135.707 E1.87322
G1 X153.311 Y135.431 E1.88222
G1 X153.612 Y135.213 E1.89122
G1 X153.951 Y135.062 E1.90022
G1 X154.314 Y134.985 E1.90922
G1 X154.686 Y134.985 E1.91821
G1 X155.049 Y135.062 E1.92721
G1 X155.388 Y135.213 E1.93621
G1 X155.689 Y135.431 E1.94521
G1 X155.937 Y135.707 E1.95421
G1 X156.123 Y136.030 E1.96324
G1 X156.240 Y136.407 E1.97280
G1 X156.276 Y136.751 E1.98119
G1 X156.237 Y137.121 E1.99019
G1 X156.151 Y137.386 E1.99695
G1 X156.372 Y137.764 F4200.000
G1 F3360
G1 X155.937 Y137.795 E1.60515
G1 X155.689 Y138.071 E1.29018
G1 X155.457 Y138.240 E1.04695
G1 E0.99695 F3000.00000
G92 E0
G1 X156.167 Y134.230 F4200.000
G1 E1.00000 F3000.00000
G1 F720
G1 X185.522 Y134.230 E1.71131
G1 X185.522 Y148.447 E2.05583
G1 X185.320 Y148.246 E2.06272
G1 X184.451 Y147.803 E2.08636
G1 X183.480 Y147.658 E2.11016
G1 X182.543 Y147.806 E2.13314
G1 X181.680 Y148.246 E2.15662
G1 X180.995 Y148.931 E2.18010
G1 X180.555 Y149.794 E2.20358
G1 X180.403 Y150.751 E2.22706
G1 X180.486 Y151.273 E2.23985
G1 X147.478 Y151.273 E3.03968
G1 X147.478 Y134.230 E3.45267
G1 X152.833 Y134.230 E3.58242
G1 X152.468 Y134.495 E3.59334
G1 X152.043 Y134.966 E3.60872
G1 X151.726 Y135.516 E3.62411
G1 X151.530 Y136.120 E3.63949
G1 X151.463 Y136.751 E3.65487
G1 X151.530 Y137.383 E3.67025
G1 X151.726 Y137.986 E3.68564
G1 X152.043 Y138.536 E3.70102
G1 X152.468 Y139.008 E3.71640
G1 X152.982 Y139.381 E3.73179
G1 X153.562 Y139.639 E3.74717
G1 X154.183 Y139.771 E3.76255
G1 X154.817 Y139.771 E3.77793
G1 X155.438 Y139.639 E3.79332
G1 X156.018 Y139.381 E3.80870
G1 X156.532 Y139.008 E3.82408
G1 X156.957 Y138.536 E3.83947
G1 X157.274 Y137.986 E3.85485
G1 X157.470 Y137.383 E3.87023
G1 X157.537 Y136.751 E3.88561
G1 X157.474 Y136.154 E3.90017
G1 X157.279 Y135.525 E3.91611
G1 X156.957 Y134.966 E3.93175
G1 X156.532 Y134.495 E3.94713
G1 X156.216 Y134.265 E3.95660
G1 F3360
G1 X157.336 Y134.264 E3.00660
G1 E2.95660 F3000.00000
G92 E0
G1 X147.061 Y133.812 F4200.000
G1 E1.00000 F3000.00000
G1 F720
G1 X185.939 Y133.812 E1.94210
G1 X185.939 Y149.722 E2.32763
G1 X185.663 Y149.180 E2.34237
G1 X185.072 Y148.588 E2.36264
G1 X184.322 Y148.206 E2.38303
G1 X183.481 Y148.080 E2.40362
G1 X182.674 Y148.208 E2.42344
G1 X181.928 Y148.588 E2.44371
G1 X181.337 Y149.180 E2.46398
G1 X180.957 Y149.925 E2.48426
G1 X180.826 Y150.751 E2.50453
G1 X180.957 Y151.577 E2.52480
G1 X181.015 Y151.691 E2.52788
G1 X147.061 Y151.691 E3.35065
G1 X147.061 Y133.872 E3.78243
G1 F3360
G1 X148.181 Y133.870 E2.83243
G1 E2.78243 F3000.00000
G92 E0
G1 X185.967 Y152.108 F4200.000
G1 E1.00000 F3000.00000
G1 F720
G1 X185.805 Y152.426 E1.00863
G1 X185.175 Y153.056 E1.03023
G1 X184.380 Y153.461 E1.05183
G1 X183.500 Y153.600 E1.07343
G1 X182.620 Y153.461 E1.09504
G1 X181.825 Y153.056 E1.11663
G1 X181.195 Y152.426 E1.13823
G1 X181.033 Y152.108 E1.14687
G1 X146.643 Y152.108 E1.98022
G1 X146.643 Y133.394 E2.43370
G1 X186.357 Y133.394 E3.39606
G1 X186.357 Y152.108 E3.84954
G1 X186.027 Y152.108 E3.85755
G1 X186.223 Y152.526 F4200.000
G1 F720
G1 X186.147 Y152.675 E3.86159
G1 X185.423 Y153.399 E3.88640
G1 X184.511 Y153.863 E3.91120
G1 X183.500 Y154.023 E3.93601
G1 X182.489 Y153.863 E3.96082
G1 X181.577 Y153.399 E3.98562
G1 X180.853 Y152.675 E4.01043
G1 X180.777 Y152.526 E4.01447
G1 X146.225 Y152.526 E4.85173
G1 X146.225 Y132.976 E5.32546
G1 X186.775 Y132.976 E6.30807
G1 X186.775 Y152.526 E6.78180
G1 X186.283 Y152.526 E6.79373
G1 X186.060 Y152.559 F4200.000
G1 X185.936 Y151.900
G1 F720
G1 X186.014 Y151.282 E6.80548
G1 X186.034 Y151.024 E6.80951
G1 X186.055 Y150.766 E6.81292
G1 X186.012 Y150.195 E6.81914
G1 X185.991 Y149.924 E6.82373
G1 X186.148 Y151.462 F4200.000
G1 F720
G1 X185.954 Y151.661 E6.82758
G1 X185.761 Y151.860 E6.83092
G1 X185.558 Y152.252 E6.83549
G1 X184.998 Y152.814 E6.84370
G1 X184.288 Y153.176 E6.85196
G1 X183.500 Y153.301 E6.86022
G1 X182.712 Y153.176 E6.86848
G1 X182.002 Y152.814 E6.87674
G1 X181.438 Y152.250 E6.88501
G1 X181.259 Y151.900 E6.88908
G1 F3360
G1 X181.438 Y152.250 E6.55533
G1 X181.951 Y152.764 E5.93908
G1 E5.88908 F3000.00000
G92 E0
G1 X185.342 Y135.255 F4200.000
G1 E1.00000 F3000.00000
G1 F720
G1 X184.684 Y134.597 E1.02259
G1 X184.092 Y134.597 E1.03695
G1 X185.154 Y135.659 E1.07341
G1 X185.154 Y136.251 E1.08777
G1 X183.500 Y134.597 E1.14454
G1 X182.908 Y134.597 E1.15891
G1 X185.154 Y136.843 E1.23599
G1 X185.154 Y137.435 E1.25036
G1 X182.316 Y134.597 E1.34776
G1 X181.725 Y134.597 E1.36212
G1 X185.154 Y138.027 E1.47984
G1 X185.154 Y138.619 E1.49421
G1 X181.133 Y134.597 E1.63224
G1 X180.541 Y134.597 E1.64661
G1 X185.154 Y139.210 E1.80496
G1 X185.154 Y139.802 E1.81932
G1 X179.949 Y134.597 E1.99799
G1 X179.357 Y134.597 E2.01236
G1 X185.154 Y140.394 E2.21134
G1 X185.154 Y140.986 E2.22570
G1 X178.765 Y134.597 E2.44500
G1 X178.173 Y134.597 E2.45937
G1 X185.154 Y141.578 E2.69899
G1 X185.154 Y142.170 E2.71335
G1 X177.582 Y134.597 E2.97328
G1 X176.990 Y134.597 E2.98765
G1 X185.154 Y142.762 E3.26790
G1 X185.154 Y143.353 E3.28227
G1 X176.398 Y134.597 E3.58283
G1 X175.806 Y134.597 E3.59720
G1 X185.154 Y143.945 E3.91808
G1 X185.154 Y144.537 E3.93244
G1 X175.214 Y134.597 E4.27364
G1 X174.622 Y134.597 E4.28801
G1 X185.154 Y145.129 E4.64952
G1 X185.154 Y145.721 E4.66389
G1 X174.030 Y134.597 E5.04572
G1 X173.439 Y134.597 E5.06009
G1 X185.154 Y146.313 E5.46223
G1 X185.154 Y146.905 E5.47660
G1 X172.847 Y134.597 E5.89906
G1 X172.255 Y134.597 E5.91343
G1 X185.154 Y147.496 E6.35621
G1 X185.154 Y147.748 E6.36233
G1 X184.565 Y147.448 E6.37837
G1 X184.505 Y147.439 E6.37984
G1 X171.663 Y134.597 E6.82066
G1 X171.071 Y134.597 E6.83503
G1 X183.809 Y147.335 E7.27227
G1 X183.478 Y147.286 E7.28039
G1 X183.210 Y147.328 E7.28698
G1 X170.479 Y134.597 E7.72398
G1 X169.887 Y134.597 E7.73835
G1 X182.699 Y147.409 E8.17812
G1 X182.428 Y147.452 E8.18478
G1 X182.244 Y147.546 E8.18980
G1 X169.295 Y134.597 E8.63427
G1 X168.704 Y134.597 E8.64864
G1 X181.852 Y147.745 E9.09997
G1 X181.460 Y147.946 E9.11065
G1 X168.112 Y134.597 E9.56884
G1 X167.520 Y134.597 E9.58321
G1 X181.164 Y148.241 E10.05156
G1 X180.868 Y148.537 E10.06172
G1 X166.928 Y134.597 E10.54023
G1 X166.336 Y134.597 E10.55460
G1 X180.612 Y148.873 E11.04462
G1 X180.412 Y149.265 E11.05531
G1 X165.744 Y134.597 E11.55879
G1 X165.152 Y134.597 E11.57315
G1 X180.212 Y149.657 E12.09010
G1 X180.124 Y150.161 E12.10252
G1 X164.561 Y134.597 E12.63677
G1 X163.969 Y134.597 E12.65113
G1 X180.043 Y150.672 E13.20292
G1 X180.031 Y150.751 E13.20486
G1 X180.055 Y150.905 E13.20865
G1 X179.685 Y150.905 E13.21764
G1 X163.377 Y134.597 E13.77743
G1 X162.785 Y134.597 E13.79180
G1 X179.093 Y150.905 E14.35158
G1 X178.501 Y150.905 E14.36595
G1 X162.193 Y134.597 E14.92574
G1 X161.601 Y134.597 E14.94010
G1 X177.909 Y150.905 E15.49989
G1 X177.317 Y150.905 E15.51426
G1 X161.009 Y134.597 E16.07405
G1 X160.418 Y134.597 E16.08841
G1 X176.725 Y150.905 E16.64820
G1 X176.134 Y150.905 E16.66257
G1 X159.826 Y134.597 E17.22236
G1 X159.234 Y134.597 E17.23672
G1 X175.542 Y150.905 E17.79651
G1 X174.950 Y150.905 E17.81088
G1 X158.642 Y134.597 E18.37067
G1 X158.050 Y134.597 E18.38503
G1 X174.358 Y150.905 E18.94482
G1 X173.766 Y150.905 E18.95919
G1 X157.458 Y134.597 E19.51897
G1 X157.119 Y134.597 E19.52721
G1 X157.256 Y134.749 E19.53216
G1 X157.580 Y135.311 E19.54792
G1 X173.174 Y150.905 E20.08320
G1 X172.582 Y150.905 E20.09757
G1 X157.845 Y136.168 E20.60345
G1 X157.900 Y136.814 E20.61920
G1 X171.991 Y150.905 E21.10289
G1 X171.399 Y150.905 E21.11726
G1 X157.843 Y137.350 E21.58256
G1 X157.832 Y137.459 E21.58524
G1 X157.716 Y137.815 E21.59431
G1 X170.807 Y150.905 E22.04365
G1 X170.215 Y150.905 E22.05802
G1 X157.551 Y138.241 E22.49272
G1 X157.335 Y138.617 E22.50323
G1 X169.623 Y150.905 E22.92505
G1 X169.031 Y150.905 E22.93942
G1 X157.077 Y138.951 E23.34975
G1 X156.797 Y139.263 E23.35992
G1 X168.439 Y150.905 E23.75956
G1 X167.847 Y150.905 E23.77393
G1 X156.458 Y139.516 E24.16488
G1 X156.203 Y139.701 E24.17253
G1 X156.098 Y139.748 E24.17532
G1 X167.256 Y150.905 E24.55831
G1 X166.664 Y150.905 E24.57268
G1 X155.689 Y139.930 E24.94941
G1 X155.553 Y139.991 E24.95303
G1 X155.227 Y140.060 E24.96111
G1 X166.072 Y150.905 E25.33338
G1 X165.480 Y150.905 E25.34775
G1 X154.714 Y140.139 E25.71732
G1 X154.116 Y140.133 E25.73183
G1 X164.888 Y150.905 E26.10161
G1 X164.296 Y150.905 E26.11597
G1 X153.329 Y139.938 E26.49243
G1 F3360
G1 X154.121 Y140.730 E25.54243
G1 E25.49243 F3000.00000
G92 E0
G1 X151.321 Y137.930 F4200.000
G1 E1.00000 F3000.00000
G1 F720
G1 X147.988 Y134.597 E1.11440
G1 X147.846 Y134.597 E1.11785
G1 X147.846 Y135.047 E1.12876
G1 X163.704 Y150.905 E1.67312
G1 X163.113 Y150.905 E1.68749
G1 X147.846 Y135.639 E2.21153
G1 X147.846 Y136.230 E2.22590
G1 X162.521 Y150.905 E2.72963
G1 X161.929 Y150.905 E2.74399
G1 X147.846 Y136.822 E3.22740
G1 X147.846 Y137.414 E3.24177
G1 X161.337 Y150.905 E3.70486
G1 X160.745 Y150.905 E3.71923
G1 X147.846 Y138.006 E4.16201
G1 X147.846 Y138.598 E4.17638
G1 X160.153 Y150.905 E4.59884
G1 X159.561 Y150.905 E4.61320
G1 X147.846 Y139.190 E5.01535
G1 X147.846 Y139.782 E5.02972
G1 X158.970 Y150.905 E5.41154
G1 X158.378 Y150.905 E5.42591
G1 X147.846 Y140.374 E5.78742
G1 X147.846 Y140.965 E5.80179
G1 X157.786 Y150.905 E6.14299
G1 X157.194 Y150.905 E6.15735
