; generated by Slic3r Prusa Edition 1.41.0+win64 on 2019-09-17 at 12:05:50

; 

; external perimeters extrusion width = 0.45mm
; perimeters extrusion width = 0.45mm
; infill extrusion width = 0.45mm
; solid infill extrusion width = 0.45mm
; top infill extrusion width = 0.40mm

M107
M80 ; turn on PSU
M190 S50
M104 S190 ; start E heating
M17; enable motors
G28 X Y Z ; Home
G29 ; Autolevel
M109 S190
G90
G0 X0 Y0 F5000
G0 Z0 F5000
G91
G1 E8 F200
G90
; Filament gcode
G21 ; set units to millimeters
G90 ; use absolute coordinates
M82 ; use absolute distances for extrusion
G92 E0
G1 Z0.150 F4200.000
G1 E-1.00000 F3000.00000
G92 E0
G1 X168.940 Y128.935 F4200.000
G1 E1.00000 F3000.00000
G1 F720
G1 X170.273 Y128.720 E1.03271
G1 X209.505 Y128.714 E1.98338
G1 X210.632 Y128.837 E2.01085
G1 X211.465 Y129.070 E2.03181
G1 X212.485 Y129.575 E2.05939
G1 X213.243 Y130.148 E2.08240
G1 X214.031 Y131.005 E2.11063
G1 X214.604 Y131.993 E2.13829
G1 X214.930 Y132.873 E2.16104
G1 X215.109 Y133.945 E2.18739
G1 X215.125 Y177.458 E3.24178
G1 X215.004 Y178.473 E3.26655
G1 X214.808 Y179.206 E3.28494
G1 X214.364 Y180.157 E3.31036
G1 X213.922 Y180.819 E3.32965
G1 X212.950 Y181.785 E3.36286
G1 X211.867 Y182.436 E3.39348
G1 X210.859 Y182.798 E3.41943
G1 X209.594 Y182.967 E3.45037
G1 X170.367 Y182.966 E4.40090
G1 X169.358 Y182.843 E4.42554
G1 X168.625 Y182.646 E4.44394
G1 X167.679 Y182.202 E4.46924
G1 X167.022 Y181.763 E4.48840
G1 X166.067 Y180.803 E4.52121
G1 X165.405 Y179.707 E4.55225
G1 X165.044 Y178.704 E4.57807
G1 X164.877 Y177.446 E4.60883
G1 X164.875 Y134.224 E5.65616
G1 X164.997 Y133.204 E5.68108
G1 X165.194 Y132.470 E5.69947
G1 X165.636 Y131.525 E5.72477
G1 X166.079 Y130.863 E5.74406
G1 X166.937 Y129.989 E5.77374
G1 X167.807 Y129.412 E5.79905
G1 X168.885 Y128.959 E5.82738
G1 F3360
G1 X169.989 Y128.769 E4.87738
G1 E4.82738 F3000.00000
G92 E0
G1 X167.306 Y130.227 F4200.000
G1 E1.00000 F3000.00000
G1 F720
G1 X168.285 Y129.638 E1.02768
G1 X169.180 Y129.304 E1.05084
G1 X170.305 Y129.137 E1.07839
G1 X209.505 Y129.132 E2.02828
G1 X210.562 Y129.249 E2.05405
G1 X211.318 Y129.461 E2.07306
G1 X212.273 Y129.935 E2.09890
G1 X212.970 Y130.464 E2.12011
G1 X213.701 Y131.261 E2.14632
G1 X214.235 Y132.189 E2.17225
G1 X214.531 Y132.996 E2.19309
G1 X214.695 Y134.006 E2.21787
G1 X214.708 Y177.442 E3.27042
G1 X214.593 Y178.398 E3.29374
G1 X214.412 Y179.073 E3.31067
G1 X213.992 Y179.965 E3.33458
G1 X213.583 Y180.574 E3.35236
G1 X212.677 Y181.468 E3.38320
G1 X211.670 Y182.067 E3.41158
G1 X210.756 Y182.393 E3.43511
G1 X209.578 Y182.549 E3.46391
G1 X170.389 Y182.548 E4.41353
G1 X169.433 Y182.432 E4.43685
G1 X168.764 Y182.252 E4.45366
G1 X167.875 Y181.833 E4.47745
G1 X167.266 Y181.423 E4.49524
G1 X166.384 Y180.529 E4.52568
G1 X165.774 Y179.512 E4.55442
G1 X165.448 Y178.597 E4.57795
G1 X165.294 Y177.430 E4.60649
G1 X165.292 Y134.240 E5.65306
G1 X165.407 Y133.284 E5.67639
G1 X165.588 Y132.609 E5.69332
G1 X166.006 Y131.721 E5.71711
G1 X166.415 Y131.112 E5.73489
G1 X167.264 Y130.269 E5.76387
; PURGING FINISHED
G1 F3360
G1 X168.216 Y129.680 E4.81387
G1 E4.76387 F3000.00000
G92 E0
G1 X205.179 Y150.018 F4200.000
G1 E1.00000 F3000.00000
G1 F720
G1 X205.677 Y149.520 E1.01706
G1 X206.304 Y149.200 E1.03413
G1 X207.000 Y149.090 E1.05119
G1 X207.696 Y149.200 E1.06826
G1 X208.323 Y149.520 E1.08532
G1 X208.821 Y150.018 E1.10238
G1 X209.141 Y150.646 E1.11945
G1 X209.251 Y151.341 E1.13651
G1 X209.141 Y152.037 E1.15358
G1 X208.821 Y152.664 E1.17064
G1 X208.323 Y153.162 E1.18771
G1 X207.696 Y153.482 E1.20477
G1 X207.000 Y153.592 E1.22184
G1 X206.304 Y153.482 E1.23890
G1 X205.677 Y153.162 E1.25597
G1 X205.179 Y152.664 E1.27303
G1 X204.859 Y152.037 E1.29009
G1 X204.749 Y151.341 E1.30716
G1 X204.859 Y150.646 E1.32422
G1 X205.152 Y150.071 E1.33983
G1 X205.521 Y150.267 F4200.000
G1 F720
G1 X205.926 Y149.862 E1.35369
G1 X206.435 Y149.603 E1.36755
G1 X207.000 Y149.513 E1.38140
G1 X207.565 Y149.603 E1.39526
G1 X208.074 Y149.862 E1.40912
G1 X208.479 Y150.267 E1.42298
G1 X208.738 Y150.776 E1.43683
G1 X208.828 Y151.341 E1.45069
G1 X208.738 Y151.906 E1.46455
G1 X208.479 Y152.415 E1.47841
G1 X208.074 Y152.820 E1.49226
G1 X207.565 Y153.079 E1.50612
G1 X207.000 Y153.169 E1.51998
G1 X206.435 Y153.079 E1.53383
G1 X205.926 Y152.820 E1.54769
G1 X205.521 Y152.415 E1.56155
G1 X205.262 Y151.906 E1.57541
G1 X205.172 Y151.341 E1.58926
G1 X205.262 Y150.776 E1.60312
G1 X205.494 Y150.320 E1.61553
G1 X205.359 Y149.901 F4200.000
G1 F3360
G1 X205.926 Y149.862 E1.08192
G1 X206.363 Y149.639 E0.66553
G1 E0.61553 F3000.00000
G92 E0
G1 X180.390 Y138.405 F4200.000
G1 E1.00000 F3000.00000
G1 F720
G1 X180.117 Y138.879 E1.01325
G1 X179.751 Y139.285 E1.02651
G1 X179.308 Y139.607 E1.03976
G1 X178.809 Y139.829 E1.05302
G1 X178.273 Y139.943 E1.06627
G1 X177.727 Y139.943 E1.07953
G1 X177.191 Y139.829 E1.09278
G1 X176.692 Y139.607 E1.10604
G1 X176.249 Y139.285 E1.11929
G1 X175.883 Y138.879 E1.13255
G1 X175.610 Y138.405 E1.14580
G1 X175.441 Y137.885 E1.15905
G1 X175.384 Y137.341 E1.17231
G1 X175.441 Y136.797 E1.18556
G1 X175.610 Y136.277 E1.19882
G1 X175.883 Y135.803 E1.21207
G1 X176.249 Y135.397 E1.22533
G1 X176.692 Y135.075 E1.23858
G1 X177.191 Y134.853 E1.25184
G1 X177.727 Y134.739 E1.26509
G1 X178.273 Y134.739 E1.27835
G1 X178.809 Y134.853 E1.29160
G1 X179.308 Y135.075 E1.30486
G1 X179.751 Y135.397 E1.31811
G1 X180.117 Y135.803 E1.33136
G1 X180.392 Y136.280 E1.34471
G1 X180.561 Y136.812 E1.35824
G1 X180.616 Y137.341 E1.37112
G1 X180.559 Y137.885 E1.38438
G1 X180.409 Y138.348 E1.39618
G1 X180.011 Y138.219 F4200.000
G1 F720
G1 X179.777 Y138.632 E1.40769
G1 X179.470 Y138.973 E1.41881
G1 X179.098 Y139.243 E1.42994
G1 X178.679 Y139.430 E1.44106
G1 X178.230 Y139.525 E1.45219
G1 X177.770 Y139.525 E1.46332
G1 X177.321 Y139.430 E1.47444
G1 X176.902 Y139.243 E1.48557
G1 X176.530 Y138.973 E1.49670
G1 X176.223 Y138.632 E1.50782
G1 X175.994 Y138.234 E1.51895
G1 X175.852 Y137.798 E1.53008
G1 X175.804 Y137.341 E1.54120
G1 X175.852 Y136.884 E1.55233
G1 X175.994 Y136.448 E1.56345
G1 X176.223 Y136.050 E1.57458
G1 X176.530 Y135.709 E1.58571
G1 X176.902 Y135.439 E1.59683
G1 X177.321 Y135.252 E1.60796
G1 X177.770 Y135.157 E1.61909
G1 X178.230 Y135.157 E1.63021
G1 X178.679 Y135.252 E1.64134
G1 X179.098 Y135.439 E1.65247
G1 X179.470 Y135.709 E1.66359
G1 X179.777 Y136.050 E1.67472
G1 X180.008 Y136.450 E1.68590
G1 X180.150 Y136.898 E1.69730
G1 X180.196 Y137.341 E1.70809
G1 X180.148 Y137.798 E1.71922
G1 X180.030 Y138.162 E1.72850
G1 X179.633 Y138.033 F4200.000
G1 F720
G1 X179.437 Y138.385 E1.73826
G1 X179.189 Y138.661 E1.74726
G1 X178.888 Y138.879 E1.75626
G1 X178.549 Y139.030 E1.76526
G1 X178.186 Y139.108 E1.77425
G1 X177.814 Y139.108 E1.78325
G1 X177.451 Y139.030 E1.79225
G1 X177.112 Y138.879 E1.80125
G1 X176.811 Y138.661 E1.81025
G1 X176.563 Y138.385 E1.81925
G1 X176.377 Y138.064 E1.82824
G1 X176.263 Y137.710 E1.83724
G1 X176.224 Y137.341 E1.84624
G1 X176.263 Y136.972 E1.85524
G1 X176.377 Y136.619 E1.86424
G1 X176.563 Y136.297 E1.87323
G1 X176.811 Y136.021 E1.88223
G1 X177.112 Y135.803 E1.89123
G1 X177.451 Y135.652 E1.90023
G1 X177.814 Y135.575 E1.90923
G1 X178.186 Y135.575 E1.91823
G1 X178.549 Y135.652 E1.92722
G1 X178.888 Y135.803 E1.93622
G1 X179.189 Y136.021 E1.94522
G1 X179.437 Y136.297 E1.95422
G1 X179.623 Y136.619 E1.96324
G1 X179.739 Y136.984 E1.97251
G1 X179.776 Y137.341 E1.98121
G1 X179.737 Y137.710 E1.99020
G1 X179.651 Y137.976 E1.99697
G1 X179.872 Y138.353 F4200.000
G1 F3360
G1 X179.437 Y138.385 E1.60517
G1 X179.189 Y138.661 E1.29020
G1 X178.957 Y138.830 E1.04697
G1 E0.99697 F3000.00000
G92 E0
G1 X179.667 Y134.820 F4200.000
G1 E1.00000 F3000.00000
G1 F720
G1 X209.022 Y134.820 E1.71131
G1 X209.022 Y149.037 E2.05580
G1 X208.820 Y148.836 E2.06270
G1 X207.957 Y148.396 E2.08618
G1 X207.000 Y148.244 E2.10966
G1 X206.043 Y148.396 E2.13314
G1 X205.180 Y148.836 E2.15662
G1 X204.495 Y149.521 E2.18009
G1 X204.055 Y150.384 E2.20357
G1 X203.903 Y151.341 E2.22705
G1 X203.986 Y151.863 E2.23985
G1 X170.978 Y151.863 E3.03968
G1 X170.978 Y134.819 E3.45266
G1 X176.333 Y134.820 E3.58241
G1 X175.968 Y135.084 E3.59332
G1 X175.543 Y135.556 E3.60871
G1 X175.226 Y136.106 E3.62409
G1 X175.030 Y136.710 E3.63947
G1 X174.963 Y137.341 E3.65486
G1 X175.030 Y137.972 E3.67024
G1 X175.226 Y138.576 E3.68562
G1 X175.543 Y139.126 E3.70100
G1 X175.968 Y139.598 E3.71639
G1 X176.482 Y139.971 E3.73177
G1 X177.062 Y140.229 E3.74715
G1 X177.683 Y140.361 E3.76253
G1 X178.317 Y140.361 E3.77792
G1 X178.938 Y140.229 E3.79330
G1 X179.518 Y139.971 E3.80868
G1 X180.032 Y139.598 E3.82407
G1 X180.457 Y139.126 E3.83945
G1 X180.774 Y138.576 E3.85483
G1 X180.970 Y137.972 E3.87021
G1 X181.037 Y137.341 E3.88560
G1 X180.972 Y136.727 E3.90057
G1 X180.777 Y136.111 E3.91623
G1 X180.457 Y135.556 E3.93174
G1 X180.032 Y135.084 E3.94712
G1 X179.716 Y134.855 E3.95658
G1 F3360
G1 X180.836 Y134.854 E3.00658
G1 E2.95658 F3000.00000
G92 E0
G1 X170.583 Y134.402 F4200.000
G1 E1.00000 F3000.00000
G1 F720
G1 X209.436 Y134.405 E1.94148
G1 X209.439 Y150.311 E2.32693
G1 X209.163 Y149.769 E2.34167
G1 X208.572 Y149.178 E2.36194
G1 X207.826 Y148.798 E2.38221
G1 X207.000 Y148.667 E2.40248
G1 X206.174 Y148.798 E2.42275
G1 X205.428 Y149.178 E2.44303
G1 X204.837 Y149.769 E2.46330
G1 X204.457 Y150.515 E2.48357
G1 X204.326 Y151.341 E2.50384
G1 X204.457 Y152.167 E2.52411
G1 X204.515 Y152.280 E2.52719
G1 X170.564 Y152.277 E3.34988
G1 X170.561 Y134.445 E3.78200
G1 F3360
G1 X171.681 Y134.443 E2.83200
G1 E2.78200 F3000.00000
G92 E0
G1 X204.436 Y152.698 F4200.000
G1 E1.00000 F3000.00000
G1 F720
G1 X170.551 Y152.698 E1.82112
G1 X170.392 Y152.673 E1.82501
G1 X170.295 Y152.624 E1.82765
G1 X170.218 Y152.546 E1.83030
G1 X170.168 Y152.449 E1.83295
G1 X170.143 Y152.290 E1.83684
G1 X170.143 Y134.392 E2.27056
G1 X170.168 Y134.233 E2.27445
G1 X170.218 Y134.136 E2.27709
G1 X170.295 Y134.059 E2.27974
G1 X170.392 Y134.009 E2.28239
G1 X170.551 Y133.984 E2.28628
G1 X209.454 Y133.985 E3.22898
G1 X209.608 Y134.009 E3.23275
G1 X209.705 Y134.059 E3.23540
G1 X209.783 Y134.136 E3.23805
G1 X209.832 Y134.233 E3.24070
G1 X209.857 Y134.392 E3.24458
G1 X209.857 Y152.291 E3.67831
G1 X209.832 Y152.449 E3.68220
G1 X209.783 Y152.546 E3.68484
G1 X209.705 Y152.623 E3.68749
G1 X209.483 Y152.737 E3.69353
G1 X209.310 Y153.019 E3.70156
G1 X209.019 Y153.360 E3.71242
G1 X208.678 Y153.651 E3.72328
G1 X208.296 Y153.885 E3.73413
G1 X207.882 Y154.057 E3.74499
G1 X207.447 Y154.161 E3.75585
G1 X207.000 Y154.196 E3.76670
G1 X206.553 Y154.161 E3.77756
G1 X206.118 Y154.057 E3.78842
G1 X205.704 Y153.885 E3.79927
G1 X205.322 Y153.651 E3.81013
G1 X204.985 Y153.364 E3.82085
G1 X204.475 Y152.745 E3.84030
G1 X204.239 Y153.116 F4200.000
G1 F720
G1 X170.518 Y153.116 E4.65744
G1 X170.261 Y153.075 E4.66373
G1 X170.046 Y152.966 E4.66958
G1 X169.875 Y152.795 E4.67544
G1 X169.766 Y152.580 E4.68129
G1 X169.725 Y152.323 E4.68758
G1 X169.725 Y134.359 E5.12290
G1 X169.766 Y134.102 E5.12919
G1 X169.875 Y133.887 E5.13504
G1 X170.046 Y133.716 E5.14089
G1 X170.261 Y133.607 E5.14675
G1 X170.518 Y133.566 E5.15304
G1 X209.487 Y133.567 E6.09734
G1 X209.739 Y133.607 E6.10351
G1 X209.954 Y133.716 E6.10936
G1 X210.125 Y133.887 E6.11522
G1 X210.234 Y134.102 E6.12107
G1 X210.275 Y134.359 E6.12736
G1 X210.275 Y152.323 E6.56268
G1 X210.234 Y152.580 E6.56896
G1 X210.125 Y152.795 E6.57482
G1 X209.954 Y152.966 E6.58067
G1 X209.778 Y153.055 E6.58546
G1 X209.649 Y153.266 E6.59144
G1 X209.315 Y153.656 E6.60389
G1 X208.925 Y153.990 E6.61634
G1 X208.487 Y154.258 E6.62879
G1 X208.012 Y154.455 E6.64124
G1 X207.512 Y154.575 E6.65369
G1 X207.000 Y154.615 E6.66614
G1 X206.488 Y154.575 E6.67859
G1 X205.988 Y154.455 E6.69104
G1 X205.513 Y154.258 E6.70349
G1 X205.075 Y153.990 E6.71594
G1 X204.686 Y153.658 E6.72834
G1 X204.278 Y153.162 E6.74390
G1 X204.139 Y152.729 F4200.000
G1 X204.707 Y152.489
G1 F720
G1 X204.946 Y152.850 E6.74850
G1 X205.211 Y153.142 E6.75268
G1 X205.499 Y153.407 E6.75684
G1 X205.847 Y153.603 E6.76108
G1 X206.211 Y153.770 E6.76532
G1 X206.603 Y153.848 E6.76957
G1 X207.000 Y153.895 E6.77381
G1 X207.397 Y153.848 E6.77806
G1 X207.789 Y153.770 E6.78230
G1 X208.153 Y153.603 E6.78655
G1 X208.501 Y153.407 E6.79079
G1 X208.795 Y153.136 E6.79504
G1 X209.074 Y152.830 E6.79943
G1 X209.246 Y152.522 E6.80374
G1 X209.648 Y151.994 E6.81269
G1 X209.514 Y151.869 F4200.000
G1 F720
G1 X209.535 Y151.612 E6.81669
G1 X209.555 Y151.356 E6.82009
G1 X209.512 Y150.785 E6.82630
G1 X209.491 Y150.514 E6.83090
G1 X209.648 Y151.699 F4200.000
G1 F720
G1 X209.368 Y152.561 E6.85086
G1 X209.430 Y152.529 F4200.000
G1 F720
G1 X209.494 Y152.126 E6.85854
G1 X209.514 Y151.869 E6.86338
G1 F3360
G1 X209.494 Y152.126 E6.64489
G1 X209.430 Y152.529 E6.29850
G1 E5.86338 F3000.00000
G92 E0
G1 X208.842 Y135.846 F4200.000
G1 E1.00000 F3000.00000
G1 F720
G1 X208.184 Y135.188 E1.02259
G1 X207.592 Y135.188 E1.03695
G1 X208.654 Y136.250 E1.07341
G1 X208.654 Y136.842 E1.08777
G1 X207.000 Y135.188 E1.14454
G1 X206.408 Y135.188 E1.15890
G1 X208.654 Y137.433 E1.23599
G1 X208.654 Y138.025 E1.25035
G1 X205.816 Y135.188 E1.34775
G1 X205.225 Y135.188 E1.36212
G1 X208.654 Y138.617 E1.47984
G1 X208.654 Y139.209 E1.49420
G1 X204.633 Y135.188 E1.63223
G1 X204.041 Y135.188 E1.64660
G1 X208.654 Y139.801 E1.80495
G1 X208.654 Y140.393 E1.81931
G1 X203.449 Y135.188 E1.99798
G1 X202.857 Y135.188 E2.01234
G1 X208.654 Y140.985 E2.21133
G1 X208.654 Y141.576 E2.22569
G1 X202.265 Y135.188 E2.44499
G1 X201.673 Y135.188 E2.45935
G1 X208.654 Y142.168 E2.69897
G1 X208.654 Y142.760 E2.71333
G1 X201.082 Y135.188 E2.97326
G1 X200.490 Y135.188 E2.98763
G1 X208.654 Y143.352 E3.26787
G1 X208.654 Y143.944 E3.28224
G1 X199.898 Y135.188 E3.58280
G1 X199.306 Y135.188 E3.59717
G1 X208.654 Y144.536 E3.91805
G1 X208.654 Y145.128 E3.93241
G1 X198.714 Y135.188 E4.27361
G1 X198.122 Y135.188 E4.28797
G1 X208.654 Y145.719 E4.64948
G1 X208.654 Y146.311 E4.66385
G1 X197.530 Y135.188 E5.04568
G1 X196.938 Y135.188 E5.06004
G1 X208.654 Y146.903 E5.46219
G1 X208.654 Y147.495 E5.47655
G1 X196.347 Y135.188 E5.89901
G1 X195.755 Y135.188 E5.91338
G1 X208.654 Y148.087 E6.35615
G1 X208.654 Y148.338 E6.36226
G1 X208.072 Y148.042 E6.37811
G1 X208.007 Y148.031 E6.37972
G1 X195.163 Y135.188 E6.82059
G1 X194.571 Y135.188 E6.83495
G1 X207.303 Y147.920 E7.27201
G1 X207.000 Y147.872 E7.27946
G1 X206.710 Y147.918 E7.28660
G1 X193.979 Y135.188 E7.72358
G1 X193.387 Y135.188 E7.73795
G1 X206.199 Y147.999 E8.17771
G1 X205.928 Y148.042 E8.18436
G1 X205.744 Y148.136 E8.18938
G1 X192.795 Y135.188 E8.63384
G1 X192.204 Y135.188 E8.64820
G1 X205.351 Y148.335 E9.09952
G1 X204.960 Y148.536 E9.11020
G1 X191.612 Y135.188 E9.56838
G1 X191.020 Y135.188 E9.58275
G1 X204.664 Y148.832 E10.05109
G1 X204.368 Y149.127 E10.06125
G1 X190.428 Y135.188 E10.53975
G1 X189.836 Y135.188 E10.55411
G1 X204.111 Y149.463 E11.04413
G1 X203.912 Y149.855 E11.05481
G1 X189.244 Y135.188 E11.55828
G1 X188.652 Y135.187 E11.57265
G1 X203.712 Y150.247 E12.08958
G1 X203.624 Y150.751 E12.10200
G1 X188.061 Y135.187 E12.63625
G1 X187.469 Y135.187 E12.65061
G1 X203.543 Y151.262 E13.20239
G1 X203.531 Y151.341 E13.20433
G1 X203.555 Y151.495 E13.20811
G1 X203.184 Y151.495 E13.21712
G1 X186.877 Y135.187 E13.77689
G1 X186.285 Y135.187 E13.79125
G1 X202.592 Y151.495 E14.35102
G1 X202.001 Y151.495 E14.36539
G1 X185.693 Y135.187 E14.92516
G1 X185.101 Y135.187 E14.93952
G1 X201.409 Y151.495 E15.49929
G1 X200.817 Y151.495 E15.51366
G1 X184.509 Y135.187 E16.07343
G1 X183.917 Y135.187 E16.08780
G1 X200.225 Y151.495 E16.64757
G1 X199.633 Y151.495 E16.66193
G1 X183.326 Y135.187 E17.22171
G1 X182.734 Y135.187 E17.23607
G1 X199.041 Y151.495 E17.79584
G1 X198.449 Y151.495 E17.81021
G1 X182.142 Y135.187 E18.36998
G1 X181.550 Y135.187 E18.38435
G1 X197.858 Y151.495 E18.94412
G1 X197.266 Y151.495 E18.95849
G1 X180.958 Y135.187 E19.51826
G1 X180.619 Y135.187 E19.52649
G1 X180.756 Y135.339 E19.53144
G1 X181.081 Y135.902 E19.54721
G1 X196.674 Y151.495 E20.08246
G1 X196.082 Y151.495 E20.09683
G1 X181.345 Y136.758 E20.60269
G1 X181.400 Y137.404 E20.61844
G1 X195.490 Y151.495 E21.10211
G1 X194.898 Y151.495 E21.11648
G1 X181.343 Y137.940 E21.58177
